!!!!SEGMENT: pl-gd--ms-joh-406--003-001_mielczewski-marcin--missa-cerviensiana-kyrie.krn
!!!cenid: 16xx:1753
!!!COM: Mielczewski, Marcin
!!!COM-rismID: pe30002204
!!!CDT: -1651
!!!CNT:
!!!OPR: Missa Cerviensiana
!!!OTL: Kyrie
!!!OMV: 001
!!!PDT: 1689
!!!AGN:
!!!SMS-siglum: PL-GD
!!!SMS-shelfmark: Ms Joh.406
!!!SMS-shelfwork: 003-001 M
!!!SMS-variant:
!!!SMS-altvar:
!!!NIFC-rismSourceID: 305000456
!!!NIFC-islandoraID: pl-gd:36565
!!!URL-pdf-islandora: https://repozytorium.nifc.pl/islandora/object/pl-gd:36565/datastream/PDF/view
!!!URL-scan: https://polish.musicsources.pl/pl/lokalizacje/galeria/rekopisy/5611 @EN{Scan on Polish Music Sources Website} @PL{Skany w portalu Dziedzictwo Muzyki Polskiej w otwartym dostępie}
!!!ONB-nifc: UWAGA: części Mszy: 1. Kyrie, 2. Et in terra. Partie: tyt. - 180, Solo Sopr: (x2) - 183 i 209-210, Soprano 1 – 183 184, Soprano 2 – 184-185, Alto – 185-186, Tenore 1 186-187, Tenore 2 – 187-188, Basso – 188-189, Sop: 1 Rip. o Cornetto – 189, Sopr:2 Voce o. Cornetto – 190, Alto Rip. - 191, Tenore 1. Rip – 192, Tenore 2 Rip: 193, Basso Ripien: - 194, Violino 1 – 195, Violino 2 – 196, Trombone 1 – 197, Tromb. 2 – 198, Tromb. 3 – 199, Trombon 4 – 200, Viola brac: 1ma ad placitum 201-202, Viola 2da bracc: ad placitum – 202, Viola bracc: 3tia ad placitum – 203, Cornettino 1mo ad placitum – 204-205, Cornettino 2do ad placitum – 205-206, Bombardo grosso – 206-207, Viola bassa 4 – 208, Basso Continuo pro Organo - 210
!!!AIN: 2 alto 2 bass 2 cornt 1 oboe 1 org 4 soprn 4 tenor 1 troma 1 tromb 2 tromt 3 viola 1 violb 1 viole 2 violn
!!!key: g
**kern	**fba	**kern	**kern	**kern	**kern	**kern	**kern	**kern	**kern	**text	**text	**kern	**text	**text	**kern	**text	**text	**kern	**text	**text	**kern	**text	**text	**kern	**text	**text	**kern	**text	**text	**kern	**text	**text	**kern	**text	**text	**kern	**text	**kern	**text	**text	**kern	**text	**text	**kern	**kern	**kern	**kern	**kern	**kern	**kern
*	*	*	*	*	*	*	*	*	*group2	*	*	*group2	*	*	*group2	*	*	*group2	*	*	*group2	*	*	*group2	*	*	*group1	*	*	*group1	*	*	*group1	*	*	*group1	*	*group1	*	*	*group1	*	*	*	*	*	*	*	*	*
*part27	*part27	*part26	*part25	*part24	*part23	*part22	*part21	*part20	*part19	*part19	*part19	*part18	*part18	*part18	*part17	*part17	*part17	*part16	*part16	*part16	*part15	*part15	*part15	*part14	*part14	*part14	*part13	*part13	*part13	*part12	*part12	*part12	*part11	*part11	*part11	*part10	*part10	*part9	*part9	*part9	*part8	*part8	*part8	*part7	*part6	*part5	*part4	*part3	*part2	*part1
*staff27	*	*staff26	*staff25	*staff24	*staff23	*staff22	*staff21	*staff20	*staff19	*staff19	*staff19	*staff18	*staff18	*staff18	*staff17	*staff17	*staff17	*staff16	*staff16	*staff16	*staff15	*staff15	*staff15	*staff14	*staff14	*staff14	*staff13	*staff13	*staff13	*staff12	*staff12	*staff12	*staff11	*staff11	*staff11	*staff10	*staff10	*staff9	*staff9	*staff	*staff8	*staff8	*staff8	*staff7	*staff6	*staff5	*staff4	*staff3	*staff2	*staff1
*I"Continuo pro Organo.	*	*I"Violone Grosso.	*I"Viola baſsa. 4.	*I"Viola bracc: 3tia. ad placitum.	*I"Viola 2da. bracc: ad placitum.	*I"Viola brac: 1ma. ad placitum.	*I"Violino 2	*I"Violino 1.	*I"Baſso Ripien:	*	*	*I"Tenore 2. Rip:	*	*	*I"Tenore 1. Rip	*	*	*I"Alto Rip.	*	*	*I"Sop: 2 Voce O. Cornetto.	*	*	*I"Sop: 1 Rip. ō Cornetto.	*	*	*I"BASSO.	*	*	*I"Tenore 2.	*	*	*I"Tenor 1	*	*	*I"Alto.	*	*I"Soprano 2.	*	*	*I"Soprani 1.	*	*	*I"Tromboni 4.	*I"Tromb 3	*I"Tromb: 2	*I"Trombone 1.	*I"Cornettino 2do. ad placitum.	*I"Cornettino. 1mo. ad placitum.	*I"Bombardo groſso.
*I'org	*	*I'vlne	*I'vla basso 4	*I'vla da braccio 3	*I'vla da braccio 2	*I'vla da braccio 1	*I'vl 2	*I'vl 1	*I'B rip	*	*	*I'T 2 rip	*	*	*I'T 1 rip	*	*	*I'A rip	*	*	*I'S 2 rip|cnto	*	*	*I'S 1 rip|cnto	*	*	*I'B	*	*	*I'T 2	*	*	*I'T 1	*	*	*I'A	*	*I'S 2	*	*	*I'S 1	*	*	*I'b-trb	*I't-trb	*I't-trb	*I'a-trb	*I'kornettino 2	*I'kornettino 1	*I'bombarde
*Iorg	*	*Iviole	*Iviolb	*Iviola	*Iviola	*Iviola	*Ivioln	*Ivioln	*Ibass	*	*	*Itenor	*	*	*Itenor	*	*	*Ialto	*	*	*Isoprn	*	*	*Isoprn	*	*	*Ibass	*	*	*Itenor	*	*	*Itenor	*	*	*Ialto	*	*Isoprn	*	*	*Isoprn	*	*	*Itromb	*Itromt	*Itromt	*Itroma	*Icornt	*Icornt	*Ioboe
*ICklav	*	*ICstr	*ICstr	*ICstr	*ICstr	*ICstr	*ICstr	*ICstr	*ICvox	*	*	*ICvox	*	*	*ICvox	*	*	*ICvox	*	*	*ICvox	*	*	*ICvox	*	*	*ICvox	*	*	*ICvox	*	*	*ICvox	*	*	*ICvox	*	*ICvox	*	*	*ICvox	*	*	*ICbras	*ICbras	*ICbras	*ICbras	*ICbras	*ICbras	*ICww
*	*	*	*	*	*	*	*	*	*IGcoro	*	*	*IGcoro	*	*	*IGcoro	*	*	*IGcoro	*	*	*IGcoro	*	*	*IGcoro	*	*	*IGcoro	*	*	*IGcoro	*	*	*IGcoro	*	*	*IGcoro	*	*IGcoro	*	*	*IGcoro	*	*	*	*	*	*	*	*	*
*clefF4	*	*clefF4	*clefF4	*clefC4	*clefC4	*clefC3	*clefG2	*clefG2	*clefF4	*	*	*clefC4	*	*	*clefC4	*	*	*clefC3	*	*	*clefC1	*	*	*clefC1	*	*	*clefF4	*	*	*clefC4	*	*	*clefC4	*	*	*clefC3	*	*clefC1	*	*	*clefC1	*	*	*clefF4	*clefC4	*clefC4	*clefC3	*clefG2	*clefG2	*clefF4
*k[b-]	*	*k[b-]	*k[b-]	*k[b-]	*k[b-]	*k[b-]	*k[b-]	*k[b-]	*k[b-]	*	*	*k[b-]	*	*	*k[b-]	*	*	*k[b-]	*	*	*k[b-]	*	*	*k[b-]	*	*	*k[b-]	*	*	*k[b-]	*	*	*k[b-]	*	*	*k[b-]	*	*k[b-]	*	*	*k[b-]	*	*	*k[b-]	*k[b-]	*k[b-]	*k[b-]	*k[b-]	*k[b-]	*k[b-]
*g:	*	*g:	*g:	*g:	*g:	*g:	*g:	*g:	*g:	*	*	*g:	*	*	*g:	*	*	*g:	*	*	*g:	*	*	*g:	*	*	*g:	*	*	*g:	*	*	*g:	*	*	*g:	*	*g:	*	*	*g:	*	*	*g:	*g:	*g:	*g:	*g:	*g:	*g:
*M3/2	*	*M3/2	*M3/2	*M3/2	*M3/2	*M3/2	*M3/2	*M3/2	*M3/2	*	*	*M3/2	*	*	*M3/2	*	*	*M3/2	*	*	*M3/2	*	*	*M3/2	*	*	*M3/2	*	*	*M3/2	*	*	*M3/2	*	*	*M3/2	*	*M3/2	*	*	*M3/2	*	*	*M3/2	*M3/2	*M3/2	*M3/2	*M3/2	*M3/2	*M3/2
=1-	=1-	=1-	=1-	=1-	=1-	=1-	=1-	=1-	=1-	=1-	=1-	=1-	=1-	=1-	=1-	=1-	=1-	=1-	=1-	=1-	=1-	=1-	=1-	=1-	=1-	=1-	=1-	=1-	=1-	=1-	=1-	=1-	=1-	=1-	=1-	=1-	=1-	=1-	=1-	=1-	=1-	=1-	=1-	=1-	=1-	=1-	=1-	=1-	=1-	=1-
!LO:TX:a:i:t=Solo Sopr&colon;	!	!	!LO:TX:a:t=24.	!LO:TX:a:t=24.	!LO:TX:a:t=24.	!LO:TX:a:t=24.	!LO:TX:a:t=24	!LO:TX:a:t=24	!LO:TX:a:t=24	!	!	!LO:TX:a:t=24	!	!	!LO:TX:a:t=24	!	!	!LO:TX:a:t=24	!	!	!LO:TX:a:t=24	!	!	!LO:TX:a:t=24	!	!	!LO:TX:a:t=24.	!	!	!LO:TX:a:t=24	!	!	!LO:TX:a:t=24	!	!	!LO:TX:a:t=24	!	!LO:TX:a:t=24	!	!	!	!	!	!LO:TX:a:t=24	!LO:TX:a:t=24	!LO:TX:a:t=24	!LO:TX:a:t=24	!LO:TX:a:t=24.	!LO:TX:a:t=24.	!
1GG	.	1GG	00.r	00.r	00.r	00.r	00.r	00.r	00.r	.	.	00.r	.	.	00.r	.	.	00.r	.	.	00.r	.	.	00.r	.	.	00.r	.	.	00.r	.	.	00.r	.	.	00.r	.	00.r	.	.	2r	.	.	00.r	00.r	00.r	00.r	00.r	00.r	1GG
.	.	.	.	.	.	.	.	.	.	.	.	.	.	.	.	.	.	.	.	.	.	.	.	.	.	.	.	.	.	.	.	.	.	.	.	.	.	.	.	.	2r	.	.	.	.	.	.	.	.	.
*	*	*	*	*	*	*	*	*	*	*	*	*	*	*	*	*	*	*	*	*	*	*	*	*	*	*	*	*	*	*	*	*	*	*	*	*	*	*	*	*	*2\right	*	*	*	*	*	*	*	*	*
!	!	!	!	!	!	!	!	!	!	!	!	!	!	!	!	!	!	!	!	!	!	!	!	!	!	!	!	!	!	!	!	!	!	!	!	!	!	!	!	!	!LO:TX:t=P:problem=kreska pseudotaktowa	!	!	!	!	!	!	!	!	!
!	!	!LO:TX:t=P:problem=kreska pseudotaktowa	!	!	!	!	!	!	!	!	!	!	!	!	!	!	!	!	!	!	!	!	!	!	!	!	!	!	!	!	!	!	!	!	!	!	!	!	!	!	!LO:TX:a:t=Solo	!	!	!	!	!	!	!	!	!LO:TX:t=P:problem=kreska pseudotaktowa
2GG/	.	2GG/	.	.	.	.	.	.	.	.	.	.	.	.	.	.	.	.	.	.	.	.	.	.	.	.	.	.	.	.	.	.	.	.	.	.	.	.	.	.	2b-\	Kÿ-	.	.	.	.	.	.	.	2GG/
=2-	=2-	=2-	=2-	=2-	=2-	=2-	=2-	=2-	=2-	=2-	=2-	=2-	=2-	=2-	=2-	=2-	=2-	=2-	=2-	=2-	=2-	=2-	=2-	=2-	=2-	=2-	=2-	=2-	=2-	=2-	=2-	=2-	=2-	=2-	=2-	=2-	=2-	=2-	=2-	=2-	=2-	=2-	=2-	=2-	=2-	=2-	=2-	=2-	=2-	=2-
1BB-	.	1BB-	.	.	.	.	.	.	.	.	.	.	.	.	.	.	.	.	.	.	.	.	.	.	.	.	.	.	.	.	.	.	.	.	.	.	.	.	.	.	1dd	-ri-	.	.	.	.	.	.	.	1BB-
!LO:TX:t=P:problem=kreska pseudotaktowa	!	!LO:TX:t=P:problem=kreska pseudotaktowa	!	!	!	!	!	!	!	!	!	!	!	!	!	!	!	!	!	!	!	!	!	!	!	!	!	!	!	!	!	!	!	!	!	!	!	!	!	!	!LO:TX:t=P:problem=kreska pseudotaktowa	!	!	!	!	!	!	!	!	!LO:TX:t=P:problem=kreska pseudotaktowa
2FF/	.	2FF/	.	.	.	.	.	.	.	.	.	.	.	.	.	.	.	.	.	.	.	.	.	.	.	.	.	.	.	.	.	.	.	.	.	.	.	.	.	.	2cc\	-e	.	.	.	.	.	.	.	2FF/
=3-	=3-	=3-	=3-	=3-	=3-	=3-	=3-	=3-	=3-	=3-	=3-	=3-	=3-	=3-	=3-	=3-	=3-	=3-	=3-	=3-	=3-	=3-	=3-	=3-	=3-	=3-	=3-	=3-	=3-	=3-	=3-	=3-	=3-	=3-	=3-	=3-	=3-	=3-	=3-	=3-	=3-	=3-	=3-	=3-	=3-	=3-	=3-	=3-	=3-	=3-
1GG	-	1GG	.	.	.	.	.	.	.	.	.	.	.	.	.	.	.	.	.	.	.	.	.	.	.	.	.	.	.	.	.	.	.	.	.	.	.	.	.	.	1b-	e-	.	.	.	.	.	.	.	1GG
!	!	!LO:TX:t=P:problem=kreska pseudotaktowa	!	!	!	!	!	!	!	!	!	!	!	!	!	!	!	!	!	!	!	!	!	!	!	!	!	!	!	!	!	!	!	!	!	!	!	!	!	!	!LO:TX:t=P:problem=kreska pseudotaktowa	!	!	!	!	!	!	!	!	!LO:TX:t=P:problem=kreska pseudotaktowa
2C/	6 -5	2C/	.	.	.	.	.	.	.	.	.	.	.	.	.	.	.	.	.	.	.	.	.	.	.	.	.	.	.	.	.	.	.	.	.	.	.	.	.	.	2cc\	.	.	.	.	.	.	.	.	2C/
=4-	=4-	=4-	=4-	=4-	=4-	=4-	=4-	=4-	=4-	=4-	=4-	=4-	=4-	=4-	=4-	=4-	=4-	=4-	=4-	=4-	=4-	=4-	=4-	=4-	=4-	=4-	=4-	=4-	=4-	=4-	=4-	=4-	=4-	=4-	=4-	=4-	=4-	=4-	=4-	=4-	=4-	=4-	=4-	=4-	=4-	=4-	=4-	=4-	=4-	=4-
1D	4	1D	.	.	.	.	.	.	.	.	.	.	.	.	.	.	.	.	.	.	.	.	.	.	.	.	.	.	.	.	.	.	.	.	.	.	.	.	.	.	1a	-lei-	.	.	.	.	.	.	.	1D
!	!	!LO:TX:t=P:problem=kreska pseudotaktowa	!	!	!	!	!	!	!	!	!	!	!	!	!	!	!	!	!	!	!	!	!	!	!	!	!	!	!	!	!	!	!	!	!	!	!	!	!	!	!	!	!	!	!	!	!	!	!	!LO:TX:t=P:problem=kreska pseudotaktowa
2D/	3	2D/	.	.	.	.	.	.	.	.	.	.	.	.	.	.	.	.	.	.	.	.	.	.	.	.	.	.	.	.	.	.	.	.	.	.	.	.	.	.	2a\	.	.	.	.	.	.	.	.	2D/
=5-	=5-	=5-	=5-	=5-	=5-	=5-	=5-	=5-	=5-	=5-	=5-	=5-	=5-	=5-	=5-	=5-	=5-	=5-	=5-	=5-	=5-	=5-	=5-	=5-	=5-	=5-	=5-	=5-	=5-	=5-	=5-	=5-	=5-	=5-	=5-	=5-	=5-	=5-	=5-	=5-	=5-	=5-	=5-	=5-	=5-	=5-	=5-	=5-	=5-	=5-
!LO:TX:t=P:problem=kreska pseudotaktowa	!	!LO:TX:t=P:problem=kreska pseudotaktowa	!	!	!	!	!	!	!	!	!	!	!	!	!	!	!	!	!	!	!	!	!	!	!	!	!	!	!	!	!	!	!	!	!	!	!	!	!	!	!LO:TX:t=P:problem=kreska pseudotaktowa	!	!	!	!	!	!	!	!	!LO:TX:t=P:problem=kreska pseudotaktowa
1.GG	.	1.GG	00.r	00.r	00.r	00.r	00.r	00.r	00.r	.	.	00.r	.	.	00.r	.	.	00.r	.	.	00.r	.	.	00.r	.	.	00.r	.	.	00.r	.	.	00.r	.	.	00.r	.	00.r	.	.	1.g	-ſon,	.	00.r	00.r	00.r	00.r	00.r	00.r	1.GG
=6-	=6-	=6-	=6-	=6-	=6-	=6-	=6-	=6-	=6-	=6-	=6-	=6-	=6-	=6-	=6-	=6-	=6-	=6-	=6-	=6-	=6-	=6-	=6-	=6-	=6-	=6-	=6-	=6-	=6-	=6-	=6-	=6-	=6-	=6-	=6-	=6-	=6-	=6-	=6-	=6-	=6-	=6-	=6-	=6-	=6-	=6-	=6-	=6-	=6-	=6-
*2\right	*	*2\right	*	*	*	*	*	*	*	*	*	*	*	*	*	*	*	*	*	*	*	*	*	*	*	*	*	*	*	*	*	*	*	*	*	*	*	*	*	*	*	*ij	*	*	*	*	*	*	*	*2\right
2G\	.	2G\	.	.	.	.	.	.	.	.	.	.	.	.	.	.	.	.	.	.	.	.	.	.	.	.	.	.	.	.	.	.	.	.	.	.	.	.	.	.	2b-\	Kÿ-	.	.	.	.	.	.	.	2G\
*	*	*2\left	*	*	*	*	*	*	*	*	*	*	*	*	*	*	*	*	*	*	*	*	*	*	*	*	*	*	*	*	*	*	*	*	*	*	*	*	*	*	*	*	*	*	*	*	*	*	*	*
2G\	.	2G\	.	.	.	.	.	.	.	.	.	.	.	.	.	.	.	.	.	.	.	.	.	.	.	.	.	.	.	.	.	.	.	.	.	.	.	.	.	.	2b-\	-ri-	.	.	.	.	.	.	.	2G\
!LO:TX:t=P:problem=kreska pseudotaktowa	!	!LO:TX:t=P:problem=kreska pseudotaktowa	!	!	!	!	!	!	!	!	!	!	!	!	!	!	!	!	!	!	!	!	!	!	!	!	!	!	!	!	!	!	!	!	!	!	!	!	!	!	!LO:TX:t=P:problem=kreska pseudotaktowa	!	!	!	!	!	!	!	!	!LO:TX:t=P:problem=kreska pseudotaktowa
2A\	6	2A\	.	.	.	.	.	.	.	.	.	.	.	.	.	.	.	.	.	.	.	.	.	.	.	.	.	.	.	.	.	.	.	.	.	.	.	.	.	.	2cc\	-e	.	.	.	.	.	.	.	2A\
=7-	=7-	=7-	=7-	=7-	=7-	=7-	=7-	=7-	=7-	=7-	=7-	=7-	=7-	=7-	=7-	=7-	=7-	=7-	=7-	=7-	=7-	=7-	=7-	=7-	=7-	=7-	=7-	=7-	=7-	=7-	=7-	=7-	=7-	=7-	=7-	=7-	=7-	=7-	=7-	=7-	=7-	=7-	=7-	=7-	=7-	=7-	=7-	=7-	=7-	=7-
1B-X	.	1B-X	.	.	.	.	.	.	.	.	.	.	.	.	.	.	.	.	.	.	.	.	.	.	.	.	.	.	.	.	.	.	.	.	.	.	.	.	.	.	1dd	e-	.	.	.	.	.	.	.	1B-X
!LO:TX:t=P:problem=kreska pseudotaktowa	!	!LO:TX:t=P:problem=kreska pseudotaktowa	!	!	!	!	!	!	!	!	!	!	!	!	!	!	!	!	!	!	!	!	!	!	!	!	!	!	!	!	!	!	!	!	!	!	!	!	!	!	!	!	!	!	!	!	!	!	!	!LO:TX:t=P:problem=kreska pseudotaktowa
2E-X\	.	2E-X/	.	.	.	.	.	.	.	.	.	.	.	.	.	.	.	.	.	.	.	.	.	.	.	.	.	.	.	.	.	.	.	.	.	.	.	.	.	.	2ee-X\	.	.	.	.	.	.	.	.	2E-X\
=8-	=8-	=8-	=8-	=8-	=8-	=8-	=8-	=8-	=8-	=8-	=8-	=8-	=8-	=8-	=8-	=8-	=8-	=8-	=8-	=8-	=8-	=8-	=8-	=8-	=8-	=8-	=8-	=8-	=8-	=8-	=8-	=8-	=8-	=8-	=8-	=8-	=8-	=8-	=8-	=8-	=8-	=8-	=8-	=8-	=8-	=8-	=8-	=8-	=8-	=8-
1F	.	1F	.	.	.	.	.	.	.	.	.	.	.	.	.	.	.	.	.	.	.	.	.	.	.	.	.	.	.	.	.	.	.	.	.	.	.	.	.	.	1cc	-lei-	.	.	.	.	.	.	.	1F
!	!	!LO:TX:t=P:problem=kreska pseudotaktowa	!	!	!	!	!	!	!	!	!	!	!	!	!	!	!	!	!	!	!	!	!	!	!	!	!	!	!	!	!	!	!	!	!	!	!	!	!	!	!	!	!	!	!	!	!	!	!	!LO:TX:t=P:problem=kreska pseudotaktowa
2F\	4	2F/	.	.	.	.	.	.	.	.	.	.	.	.	.	.	.	.	.	.	.	.	.	.	.	.	.	.	.	.	.	.	.	.	.	.	.	.	.	.	2cc\	.	.	.	.	.	.	.	.	2F\
.	3	.	.	.	.	.	.	.	.	.	.	.	.	.	.	.	.	.	.	.	.	.	.	.	.	.	.	.	.	.	.	.	.	.	.	.	.	.	.	.	.	.	.	.	.	.	.	.	.	.
=9-	=9-	=9-	=9-	=9-	=9-	=9-	=9-	=9-	=9-	=9-	=9-	=9-	=9-	=9-	=9-	=9-	=9-	=9-	=9-	=9-	=9-	=9-	=9-	=9-	=9-	=9-	=9-	=9-	=9-	=9-	=9-	=9-	=9-	=9-	=9-	=9-	=9-	=9-	=9-	=9-	=9-	=9-	=9-	=9-	=9-	=9-	=9-	=9-	=9-	=9-
!LO:TX:t=P:problem=kreska pseudotaktowa	!	!LO:TX:t=P:problem=kreska pseudotaktowa	!	!	!	!	!	!	!	!	!	!	!	!	!	!	!	!	!	!	!	!	!	!	!	!	!	!	!	!	!	!	!	!	!	!	!	!	!	!	!LO:TX:t=P:problem=kreska pseudotaktowa	!	!	!	!	!	!	!	!	!LO:TX:t=P:problem=kreska pseudotaktowa
1.BB-	.	1.BB-	00.r	00.r	00.r	00.r	00.r	00.r	00.r	.	.	00.r	.	.	00.r	.	.	00.r	.	.	00.r	.	.	00.r	.	.	00.r	.	.	00.r	.	.	00.r	.	.	00.r	.	00.r	.	.	1.b-	-ſon	.	00.r	00.r	00.r	00.r	00.r	00.r	1.BB-
=10-	=10-	=10-	=10-	=10-	=10-	=10-	=10-	=10-	=10-	=10-	=10-	=10-	=10-	=10-	=10-	=10-	=10-	=10-	=10-	=10-	=10-	=10-	=10-	=10-	=10-	=10-	=10-	=10-	=10-	=10-	=10-	=10-	=10-	=10-	=10-	=10-	=10-	=10-	=10-	=10-	=10-	=10-	=10-	=10-	=10-	=10-	=10-	=10-	=10-	=10-
1F	.	1F	.	.	.	.	.	.	.	.	.	.	.	.	.	.	.	.	.	.	.	.	.	.	.	.	.	.	.	.	.	.	.	.	.	.	.	.	.	.	2cc\	Kÿ-	.	.	.	.	.	.	.	1F
.	.	.	.	.	.	.	.	.	.	.	.	.	.	.	.	.	.	.	.	.	.	.	.	.	.	.	.	.	.	.	.	.	.	.	.	.	.	.	.	.	2cc\	-ri-	.	.	.	.	.	.	.	.
!LO:TX:t=P:problem=kreska pseudotaktowa	!	!LO:TX:t=P:problem=kreska pseudotaktowa	!	!	!	!	!	!	!	!	!	!	!	!	!	!	!	!	!	!	!	!	!	!	!	!	!	!	!	!	!	!	!	!	!	!	!	!	!	!	!	!	!	!	!	!	!	!	!	!LO:TX:t=P:problem=kreska pseudotaktowa
2D/	6	2D/	.	.	.	.	.	.	.	.	.	.	.	.	.	.	.	.	.	.	.	.	.	.	.	.	.	.	.	.	.	.	.	.	.	.	.	.	.	.	2dd\	-e	.	.	.	.	.	.	.	2D/
=11-	=11-	=11-	=11-	=11-	=11-	=11-	=11-	=11-	=11-	=11-	=11-	=11-	=11-	=11-	=11-	=11-	=11-	=11-	=11-	=11-	=11-	=11-	=11-	=11-	=11-	=11-	=11-	=11-	=11-	=11-	=11-	=11-	=11-	=11-	=11-	=11-	=11-	=11-	=11-	=11-	=11-	=11-	=11-	=11-	=11-	=11-	=11-	=11-	=11-	=11-
2.C/	.	2.C/	.	.	.	.	.	.	.	.	.	.	.	.	.	.	.	.	.	.	.	.	.	.	.	.	.	.	.	.	.	.	.	.	.	.	.	.	.	.	1ee-X	e-	.	.	.	.	.	.	.	2.C/
4D\	.	4D/	.	.	.	.	.	.	.	.	.	.	.	.	.	.	.	.	.	.	.	.	.	.	.	.	.	.	.	.	.	.	.	.	.	.	.	.	.	.	.	.	.	.	.	.	.	.	.	4D\
!LO:SIC:v:s=2E-	!	!	!	!	!	!	!	!	!	!	!	!	!	!	!	!	!	!	!	!	!	!	!	!	!	!	!	!	!	!	!	!	!	!	!	!	!	!	!	!	!	!	!	!	!	!	!	!	!	!
!LO:TX:t=P:problem=kreska pseudotaktowa	!	!LO:SIC:v:s=2E-	!	!	!	!	!	!	!	!	!	!	!	!	!	!	!	!	!	!	!	!	!	!	!	!	!	!	!	!	!	!	!	!	!	!	!	!	!	!	!LO:TX:t=P:problem=kreska pseudotaktowa	!	!	!	!	!	!	!	!	!LO:SIC:v:s=2E-
2Eny\	6	2Eny/	.	.	.	.	.	.	.	.	.	.	.	.	.	.	.	.	.	.	.	.	.	.	.	.	.	.	.	.	.	.	.	.	.	.	.	.	.	.	2ee-\	.	.	.	.	.	.	.	.	2E\
*	*	*custos:F	*	*	*	*	*	*	*	*	*	*	*	*	*	*	*	*	*	*	*	*	*	*	*	*	*	*	*	*	*	*	*	*	*	*	*	*	*	*	*	*	*	*	*	*	*	*	*	*custos:F
!	!	!LO:LB:g=original	!	!	!	!	!	!	!	!	!	!	!	!	!	!	!	!	!	!	!	!	!	!	!	!	!	!	!	!	!	!	!	!	!	!	!	!	!	!	!	!	!	!	!	!	!	!	!	!LO:LB:g=original
=12-	=12-	=12-	=12-	=12-	=12-	=12-	=12-	=12-	=12-	=12-	=12-	=12-	=12-	=12-	=12-	=12-	=12-	=12-	=12-	=12-	=12-	=12-	=12-	=12-	=12-	=12-	=12-	=12-	=12-	=12-	=12-	=12-	=12-	=12-	=12-	=12-	=12-	=12-	=12-	=12-	=12-	=12-	=12-	=12-	=12-	=12-	=12-	=12-	=12-	=12-
*col	*	*col	*	*	*	*	*	*	*	*	*	*	*	*	*	*	*	*	*	*	*	*	*	*	*	*	*	*	*	*	*	*	*	*	*	*	*	*	*	*	*	*	*	*	*	*	*	*	*	*col
2F\	6 5	2F\	.	.	.	.	.	.	.	.	.	.	.	.	.	.	.	.	.	.	.	.	.	.	.	.	.	.	.	.	.	.	.	.	.	.	.	.	.	.	1dd	-lei-	.	.	.	.	.	.	.	2F\
!	!	!LO:TX:t=P:problem=kreska pseudotaktowa	!	!	!	!	!	!	!	!	!	!	!	!	!	!	!	!	!	!	!	!	!	!	!	!	!	!	!	!	!	!	!	!	!	!	!	!	!	!	!	!	!	!	!	!	!	!	!	!LO:TX:t=P:problem=kreska pseudotaktowa
1G	4	1G	.	.	.	.	.	.	.	.	.	.	.	.	.	.	.	.	.	.	.	.	.	.	.	.	.	.	.	.	.	.	.	.	.	.	.	.	.	.	.	.	.	.	.	.	.	.	.	1G
.	3	.	.	.	.	.	.	.	.	.	.	.	.	.	.	.	.	.	.	.	.	.	.	.	.	.	.	.	.	.	.	.	.	.	.	.	.	.	.	.	2dd\	.	.	.	.	.	.	.	.	.
*Xcol	*	*Xcol	*	*	*	*	*	*	*	*	*	*	*	*	*	*	*	*	*	*	*	*	*	*	*	*	*	*	*	*	*	*	*	*	*	*	*	*	*	*	*	*	*	*	*	*	*	*	*	*Xcol
*custos:C	*	*	*	*	*	*	*	*	*	*	*	*	*	*	*	*	*	*	*	*	*	*	*	*	*	*	*	*	*	*	*	*	*	*	*	*	*	*	*	*	*	*	*	*	*	*	*	*	*	*
!LO:LB:g=original	!	!	!	!	!	!	!	!	!	!	!	!	!	!	!	!	!	!	!	!	!	!	!	!	!	!	!	!	!	!	!	!	!	!	!	!	!	!	!	!	!	!	!	!	!	!	!	!	!	!
=13-	=13-	=13-	=13-	=13-	=13-	=13-	=13-	=13-	=13-	=13-	=13-	=13-	=13-	=13-	=13-	=13-	=13-	=13-	=13-	=13-	=13-	=13-	=13-	=13-	=13-	=13-	=13-	=13-	=13-	=13-	=13-	=13-	=13-	=13-	=13-	=13-	=13-	=13-	=13-	=13-	=13-	=13-	=13-	=13-	=13-	=13-	=13-	=13-	=13-	=13-
!LO:TX:t=P:problem=kreska pseudotaktowa	!	!LO:TX:t=P:problem=kreska pseudotaktowa	!	!	!	!	!	!	!	!	!	!	!	!	!	!	!	!	!	!	!	!	!	!	!	!	!	!	!	!	!	!	!	!	!	!	!	!	!	!	!LO:TX:t=P:problem=kreska pseudotaktowa	!	!	!	!	!	!	!	!	!LO:TX:t=P:problem=kreska pseudotaktowa
1.C	.	1.C	00.r	00.r	00.r	00.r	00.r	00.r	00.r	.	.	00.r	.	.	00.r	.	.	00.r	.	.	00.r	.	.	00.r	.	.	00.r	.	.	00.r	.	.	00.r	.	.	00.r	.	00.r	.	.	1.cc	-ſon	.	00.r	00.r	00.r	00.r	00.r	00.r	1.C
*	*	*	*	*	*	*	*	*	*	*	*	*	*	*	*	*	*	*	*	*	*	*	*	*	*	*	*	*	*	*	*	*	*	*	*	*	*	*	*	*	*custos:g	*	*	*	*	*	*	*	*	*
!	!	!	!	!	!	!	!	!	!	!	!	!	!	!	!	!	!	!	!	!	!	!	!	!	!	!	!	!	!	!	!	!	!	!	!	!	!	!	!	!	!LO:LB:g=original	!	!	!	!	!	!	!	!	!
=14-	=14-	=14-	=14-	=14-	=14-	=14-	=14-	=14-	=14-	=14-	=14-	=14-	=14-	=14-	=14-	=14-	=14-	=14-	=14-	=14-	=14-	=14-	=14-	=14-	=14-	=14-	=14-	=14-	=14-	=14-	=14-	=14-	=14-	=14-	=14-	=14-	=14-	=14-	=14-	=14-	=14-	=14-	=14-	=14-	=14-	=14-	=14-	=14-	=14-	=14-
!LO:SIC:v:s=1C	!	!LO:SIC:v:s=1C	!	!	!	!	!	!	!	!	!	!	!	!	!	!	!	!	!	!	!	!	!	!	!	!	!	!	!	!	!	!	!	!	!	!	!	!	!	!	!	!	!	!	!	!	!	!	!	!LO:SIC:v:s=1C
1C#X	5 3	1C#X	.	.	.	.	.	.	.	.	.	.	.	.	.	.	.	.	.	.	.	.	.	.	.	.	.	.	.	.	.	.	.	.	.	.	.	.	.	.	2g/	Kÿ-	.	.	.	.	.	.	.	1C#X
.	6 4	.	.	.	.	.	.	.	.	.	.	.	.	.	.	.	.	.	.	.	.	.	.	.	.	.	.	.	.	.	.	.	.	.	.	.	.	.	.	.	2a\	-ri-	.	.	.	.	.	.	.	.
!LO:TX:t=P:problem=kreska pseudotaktowa	!	!LO:TX:t=P:problem=kreska pseudotaktowa	!	!	!	!	!	!	!	!	!	!	!	!	!	!	!	!	!	!	!	!	!	!	!	!	!	!	!	!	!	!	!	!	!	!	!	!	!	!	!LO:TX:t=P:problem=kreska pseudotaktowa	!	!	!	!	!	!	!	!	!LO:TX:t=P:problem=kreska pseudotaktowa
2BB-/	8 6	2BB-/	.	.	.	.	.	.	.	.	.	.	.	.	.	.	.	.	.	.	.	.	.	.	.	.	.	.	.	.	.	.	.	.	.	.	.	.	.	.	2b-\	-e	.	.	.	.	.	.	.	2BB-/
=15-	=15-	=15-	=15-	=15-	=15-	=15-	=15-	=15-	=15-	=15-	=15-	=15-	=15-	=15-	=15-	=15-	=15-	=15-	=15-	=15-	=15-	=15-	=15-	=15-	=15-	=15-	=15-	=15-	=15-	=15-	=15-	=15-	=15-	=15-	=15-	=15-	=15-	=15-	=15-	=15-	=15-	=15-	=15-	=15-	=15-	=15-	=15-	=15-	=15-	=15-
1AA	7	1AA	.	.	.	.	.	.	.	.	.	.	.	.	.	.	.	.	.	.	.	.	.	.	.	.	.	.	.	.	.	.	.	.	.	.	.	.	.	.	1cc	e-	.	.	.	.	.	.	.	1AA
.	6	.	.	.	.	.	.	.	.	.	.	.	.	.	.	.	.	.	.	.	.	.	.	.	.	.	.	.	.	.	.	.	.	.	.	.	.	.	.	.	.	.	.	.	.	.	.	.	.	.
!LO:TX:t=P:problem=kreska pseudotaktowa	!	!LO:TX:t=P:problem=kreska pseudotaktowa	!	!	!	!	!	!	!	!	!	!	!	!	!	!	!	!	!	!	!	!	!	!	!	!	!	!	!	!	!	!	!	!	!	!	!	!	!	!	!LO:TX:t=P:problem=kreska pseudotaktowa	!	!	!	!	!	!	!	!	!LO:TX:t=P:problem=kreska pseudotaktowa
2GG/	.	2GG/	.	.	.	.	.	.	.	.	.	.	.	.	.	.	.	.	.	.	.	.	.	.	.	.	.	.	.	.	.	.	.	.	.	.	.	.	.	.	2b-\	.	.	.	.	.	.	.	.	2GG/
=16-	=16-	=16-	=16-	=16-	=16-	=16-	=16-	=16-	=16-	=16-	=16-	=16-	=16-	=16-	=16-	=16-	=16-	=16-	=16-	=16-	=16-	=16-	=16-	=16-	=16-	=16-	=16-	=16-	=16-	=16-	=16-	=16-	=16-	=16-	=16-	=16-	=16-	=16-	=16-	=16-	=16-	=16-	=16-	=16-	=16-	=16-	=16-	=16-	=16-	=16-
*col	*	*col	*	*	*	*	*	*	*	*	*	*	*	*	*	*	*	*	*	*	*	*	*	*	*	*	*	*	*	*	*	*	*	*	*	*	*	*	*	*	*	*	*	*	*	*	*	*	*	*col
2Cny/	6 5	2Cny/	.	.	.	.	.	.	.	.	.	.	.	.	.	.	.	.	.	.	.	.	.	.	.	.	.	.	.	.	.	.	.	.	.	.	.	.	.	.	1a	-lei-	.	.	.	.	.	.	.	2Cny/
!	!	!LO:TX:t=P:problem=kreska pseudotaktowa	!	!	!	!	!	!	!	!	!	!	!	!	!	!	!	!	!	!	!	!	!	!	!	!	!	!	!	!	!	!	!	!	!	!	!	!	!	!	!	!	!	!	!	!	!	!	!	!LO:TX:t=P:problem=kreska pseudotaktowa
1D	4	1D	.	.	.	.	.	.	.	.	.	.	.	.	.	.	.	.	.	.	.	.	.	.	.	.	.	.	.	.	.	.	.	.	.	.	.	.	.	.	.	.	.	.	.	.	.	.	.	1D
.	3	.	.	.	.	.	.	.	.	.	.	.	.	.	.	.	.	.	.	.	.	.	.	.	.	.	.	.	.	.	.	.	.	.	.	.	.	.	.	.	2a\	.	.	.	.	.	.	.	.	.
*Xcol	*	*Xcol	*	*	*	*	*	*	*	*	*	*	*	*	*	*	*	*	*	*	*	*	*	*	*	*	*	*	*	*	*	*	*	*	*	*	*	*	*	*	*	*	*	*	*	*	*	*	*	*Xcol
=17-	=17-	=17-	=17-	=17-	=17-	=17-	=17-	=17-	=17-	=17-	=17-	=17-	=17-	=17-	=17-	=17-	=17-	=17-	=17-	=17-	=17-	=17-	=17-	=17-	=17-	=17-	=17-	=17-	=17-	=17-	=17-	=17-	=17-	=17-	=17-	=17-	=17-	=17-	=17-	=17-	=17-	=17-	=17-	=17-	=17-	=17-	=17-	=17-	=17-	=17-
!LO:TX:t=P:problem=kreska pseudotaktowa	!	!LO:TX:t=P:problem=kreska pseudotaktowa	!	!	!	!	!	!	!	!	!	!	!	!	!	!	!	!	!	!	!	!	!	!	!	!	!	!	!	!	!	!	!	!	!	!	!	!	!	!	!LO:TX:t=P:problem=kreska pseudotaktowa	!	!	!	!	!	!	!	!	!LO:TX:t=P:problem=kreska pseudotaktowa
1.GG	.	1.GG	00.r	00.r	00.r	00.r	00.r	00.r	00.r	.	.	00.r	.	.	00.r	.	.	00.r	.	.	00.r	.	.	00.r	.	.	00.r	.	.	00.r	.	.	00.r	.	.	00.r	.	00.r	.	.	1.g	-ſon	.	00.r	00.r	00.r	00.r	00.r	00.r	1.GG
=18-	=18-	=18-	=18-	=18-	=18-	=18-	=18-	=18-	=18-	=18-	=18-	=18-	=18-	=18-	=18-	=18-	=18-	=18-	=18-	=18-	=18-	=18-	=18-	=18-	=18-	=18-	=18-	=18-	=18-	=18-	=18-	=18-	=18-	=18-	=18-	=18-	=18-	=18-	=18-	=18-	=18-	=18-	=18-	=18-	=18-	=18-	=18-	=18-	=18-	=18-
1F	.	1F	.	.	.	.	.	.	.	.	.	.	.	.	.	.	.	.	.	.	.	.	.	.	.	.	.	.	.	.	.	.	.	.	.	.	.	.	.	.	2cc\	Kÿ-	.	.	.	.	.	.	.	1F
.	.	.	.	.	.	.	.	.	.	.	.	.	.	.	.	.	.	.	.	.	.	.	.	.	.	.	.	.	.	.	.	.	.	.	.	.	.	.	.	.	2cc\	-ri-	.	.	.	.	.	.	.	.
!	!	!LO:TX:t=P:problem=kreska pseudotaktowa	!	!	!	!	!	!	!	!	!	!	!	!	!	!	!	!	!	!	!	!	!	!	!	!	!	!	!	!	!	!	!	!	!	!	!	!	!	!	!LO:TX:t=P:problem=kreska pseudotaktowa	!	!	!	!	!	!	!	!	!LO:TX:t=P:problem=kreska pseudotaktowa
2D/	6	2D/	.	.	.	.	.	.	.	.	.	.	.	.	.	.	.	.	.	.	.	.	.	.	.	.	.	.	.	.	.	.	.	.	.	.	.	.	.	.	2dd\	-e	.	.	.	.	.	.	.	2D/
=19-	=19-	=19-	=19-	=19-	=19-	=19-	=19-	=19-	=19-	=19-	=19-	=19-	=19-	=19-	=19-	=19-	=19-	=19-	=19-	=19-	=19-	=19-	=19-	=19-	=19-	=19-	=19-	=19-	=19-	=19-	=19-	=19-	=19-	=19-	=19-	=19-	=19-	=19-	=19-	=19-	=19-	=19-	=19-	=19-	=19-	=19-	=19-	=19-	=19-	=19-
2.C/	-	2.C/	.	.	.	.	.	.	.	.	.	.	.	.	.	.	.	.	.	.	.	.	.	.	.	.	.	.	.	.	.	.	.	.	.	.	.	.	.	.	1ee-X	e-	.	.	.	.	.	.	.	2.C/
4D/	.	4D/	.	.	.	.	.	.	.	.	.	.	.	.	.	.	.	.	.	.	.	.	.	.	.	.	.	.	.	.	.	.	.	.	.	.	.	.	.	.	.	.	.	.	.	.	.	.	.	4D/
!LO:TX:t=P:problem=kreska pseudotaktowa	!	!LO:TX:t=P:problem=kreska pseudotaktowa	!	!	!	!	!	!	!	!	!	!	!	!	!	!	!	!	!	!	!	!	!	!	!	!	!	!	!	!	!	!	!	!	!	!	!	!	!	!	!LO:TX:t=P:problem=kreska pseudotaktowa	!	!	!	!	!	!	!	!	!LO:TX:t=P:problem=kreska pseudotaktowa
2E-X\	6	2E-X/	.	.	.	.	.	.	.	.	.	.	.	.	.	.	.	.	.	.	.	.	.	.	.	.	.	.	.	.	.	.	.	.	.	.	.	.	.	.	2ee-\	.	.	.	.	.	.	.	.	2E-X\
=20-	=20-	=20-	=20-	=20-	=20-	=20-	=20-	=20-	=20-	=20-	=20-	=20-	=20-	=20-	=20-	=20-	=20-	=20-	=20-	=20-	=20-	=20-	=20-	=20-	=20-	=20-	=20-	=20-	=20-	=20-	=20-	=20-	=20-	=20-	=20-	=20-	=20-	=20-	=20-	=20-	=20-	=20-	=20-	=20-	=20-	=20-	=20-	=20-	=20-	=20-
2F\	6 5	2F/	.	.	.	.	.	.	.	.	.	.	.	.	.	.	.	.	.	.	.	.	.	.	.	.	.	.	.	.	.	.	.	.	.	.	.	.	.	.	1dd	-lei-	.	.	.	.	.	.	.	2F\
!	!	!LO:TX:t=P:problem=kreska pseudotaktowa	!	!	!	!	!	!	!	!	!	!	!	!	!	!	!	!	!	!	!	!	!	!	!	!	!	!	!	!	!	!	!	!	!	!	!	!	!	!	!	!	!	!	!	!	!	!	!	!LO:TX:t=P:problem=kreska pseudotaktowa
1G	4	1G	.	.	.	.	.	.	.	.	.	.	.	.	.	.	.	.	.	.	.	.	.	.	.	.	.	.	.	.	.	.	.	.	.	.	.	.	.	.	.	.	.	.	.	.	.	.	.	1G
.	3	.	.	.	.	.	.	.	.	.	.	.	.	.	.	.	.	.	.	.	.	.	.	.	.	.	.	.	.	.	.	.	.	.	.	.	.	.	.	.	2dd\	.	.	.	.	.	.	.	.	.
=21-	=21-	=21-	=21-	=21-	=21-	=21-	=21-	=21-	=21-	=21-	=21-	=21-	=21-	=21-	=21-	=21-	=21-	=21-	=21-	=21-	=21-	=21-	=21-	=21-	=21-	=21-	=21-	=21-	=21-	=21-	=21-	=21-	=21-	=21-	=21-	=21-	=21-	=21-	=21-	=21-	=21-	=21-	=21-	=21-	=21-	=21-	=21-	=21-	=21-	=21-
!LO:TX:t=P:problem=kreska pseudotaktowa	!	!LO:TX:t=P:problem=kreska pseudotaktowa	!	!	!	!	!	!	!	!	!	!	!	!	!	!	!	!	!	!	!	!	!	!	!	!	!	!	!	!	!	!	!	!	!	!	!	!	!	!	!LO:TX:t=P:problem=kreska pseudotaktowa	!	!	!	!	!	!	!	!	!LO:TX:t=P:problem=kreska pseudotaktowa
1.C	.	1.C	00.r	00.r	00.r	00.r	00.r	00.r	00.r	.	.	00.r	.	.	00.r	.	.	00.r	.	.	00.r	.	.	00.r	.	.	00.r	.	.	00.r	.	.	00.r	.	.	00.r	.	00.r	.	.	1.cc	-ſon	.	00.r	00.r	00.r	00.r	00.r	00.r	1.C
*	*	*	*	*	*	*	*	*	*	*	*	*	*	*	*	*	*	*	*	*	*	*	*	*	*	*	*	*	*	*	*	*	*	*	*	*	*	*	*	*	*	*Xij	*	*	*	*	*	*	*	*
=22-	=22-	=22-	=22-	=22-	=22-	=22-	=22-	=22-	=22-	=22-	=22-	=22-	=22-	=22-	=22-	=22-	=22-	=22-	=22-	=22-	=22-	=22-	=22-	=22-	=22-	=22-	=22-	=22-	=22-	=22-	=22-	=22-	=22-	=22-	=22-	=22-	=22-	=22-	=22-	=22-	=22-	=22-	=22-	=22-	=22-	=22-	=22-	=22-	=22-	=22-
2C/	#	2C/	.	.	.	.	.	.	.	.	.	.	.	.	.	.	.	.	.	.	.	.	.	.	.	.	.	.	.	.	.	.	.	.	.	.	.	.	.	.	2g/	Kÿ-	.	.	.	.	.	.	.	2C/
2C/	6	2C/	.	.	.	.	.	.	.	.	.	.	.	.	.	.	.	.	.	.	.	.	.	.	.	.	.	.	.	.	.	.	.	.	.	.	.	.	.	.	2a\	-ri-	.	.	.	.	.	.	.	2C/
!LO:TX:t=P:problem=kreska pseudotaktowa	!	!LO:TX:t=P:problem=kreska pseudotaktowa	!	!	!	!	!	!	!	!	!	!	!	!	!	!	!	!	!	!	!	!	!	!	!	!	!	!	!	!	!	!	!	!	!	!	!	!	!	!	!LO:TX:t=P:problem=kreska pseudotaktowa	!	!	!	!	!	!	!	!	!LO:TX:t=P:problem=kreska pseudotaktowa
2BB-/	6	2BB-/	.	.	.	.	.	.	.	.	.	.	.	.	.	.	.	.	.	.	.	.	.	.	.	.	.	.	.	.	.	.	.	.	.	.	.	.	.	.	2b-\	-e	.	.	.	.	.	.	.	2BB-/
=23-	=23-	=23-	=23-	=23-	=23-	=23-	=23-	=23-	=23-	=23-	=23-	=23-	=23-	=23-	=23-	=23-	=23-	=23-	=23-	=23-	=23-	=23-	=23-	=23-	=23-	=23-	=23-	=23-	=23-	=23-	=23-	=23-	=23-	=23-	=23-	=23-	=23-	=23-	=23-	=23-	=23-	=23-	=23-	=23-	=23-	=23-	=23-	=23-	=23-	=23-
1AA	# 7	1AA	.	.	.	.	.	.	.	.	.	.	.	.	.	.	.	.	.	.	.	.	.	.	.	.	.	.	.	.	.	.	.	.	.	.	.	.	.	.	1cc	e-	.	.	.	.	.	.	.	1AA
.	6	.	.	.	.	.	.	.	.	.	.	.	.	.	.	.	.	.	.	.	.	.	.	.	.	.	.	.	.	.	.	.	.	.	.	.	.	.	.	.	.	.	.	.	.	.	.	.	.	.
!LO:TX:t=P:problem=kreska pseudotaktowa	!	!LO:TX:t=P:problem=kreska pseudotaktowa	!	!	!	!	!	!	!	!	!	!	!	!	!	!	!	!	!	!	!	!	!	!	!	!	!	!	!	!	!	!	!	!	!	!	!	!	!	!	!LO:TX:t=P:problem=kreska pseudotaktowa	!	!	!	!	!	!	!	!	!LO:TX:t=P:problem=kreska pseudotaktowa
2GG/	-	2GG/	.	.	.	.	.	.	.	.	.	.	.	.	.	.	.	.	.	.	.	.	.	.	.	.	.	.	.	.	.	.	.	.	.	.	.	.	.	.	2b-\	.	.	.	.	.	.	.	.	2GG/
*custos:C	*	*	*	*	*	*	*	*	*	*	*	*	*	*	*	*	*	*	*	*	*	*	*	*	*	*	*	*	*	*	*	*	*	*	*	*	*	*	*	*	*	*	*	*	*	*	*	*	*	*custos:C
!LO:LB:g=original	!	!	!	!	!	!	!	!	!	!	!	!	!	!	!	!	!	!	!	!	!	!	!	!	!	!	!	!	!	!	!	!	!	!	!	!	!	!	!	!	!	!	!	!	!	!	!	!	!	!LO:LB:g=original
=24-	=24-	=24-	=24-	=24-	=24-	=24-	=24-	=24-	=24-	=24-	=24-	=24-	=24-	=24-	=24-	=24-	=24-	=24-	=24-	=24-	=24-	=24-	=24-	=24-	=24-	=24-	=24-	=24-	=24-	=24-	=24-	=24-	=24-	=24-	=24-	=24-	=24-	=24-	=24-	=24-	=24-	=24-	=24-	=24-	=24-	=24-	=24-	=24-	=24-	=24-
2C/	6 5	2C/	.	.	.	.	.	.	.	.	.	.	.	.	.	.	.	.	.	.	.	.	.	.	.	.	.	.	.	.	.	.	.	.	.	.	.	.	.	.	1a	-lei-	.	.	.	.	.	.	.	2C/
!LO:TX:t=P:problem=kreska pseudotaktowa	!	!LO:TX:t=P:problem=kreska pseudotaktowa	!	!	!	!	!	!	!	!	!	!	!	!	!	!	!	!	!	!	!	!	!	!	!	!	!	!	!	!	!	!	!	!	!	!	!	!	!	!	!	!	!	!	!	!	!	!	!	!LO:TX:t=P:problem=kreska pseudotaktowa
1D	4	1D	.	.	.	.	.	.	.	.	.	.	.	.	.	.	.	.	.	.	.	.	.	.	.	.	.	.	.	.	.	.	.	.	.	.	.	.	.	.	.	.	.	.	.	.	.	.	.	1D
!	!	!	!	!	!	!	!	!	!	!	!	!	!	!	!	!	!	!	!	!	!	!	!	!	!	!	!	!	!	!	!	!	!	!	!	!	!	!	!	!	!LO:TX:t=P:problem=kreska pseudotaktowa	!	!	!	!	!	!	!	!	!
.	3	.	.	.	.	.	.	.	.	.	.	.	.	.	.	.	.	.	.	.	.	.	.	.	.	.	.	.	.	.	.	.	.	.	.	.	.	.	.	.	2a\	.	.	.	.	.	.	.	.	.
=25-	=25-	=25-	=25-	=25-	=25-	=25-	=25-	=25-	=25-	=25-	=25-	=25-	=25-	=25-	=25-	=25-	=25-	=25-	=25-	=25-	=25-	=25-	=25-	=25-	=25-	=25-	=25-	=25-	=25-	=25-	=25-	=25-	=25-	=25-	=25-	=25-	=25-	=25-	=25-	=25-	=25-	=25-	=25-	=25-	=25-	=25-	=25-	=25-	=25-	=25-
!	!	!LO:TX:b:t=Tutti	!	!	!	!	!	!	!	!	!	!	!	!	!	!	!	!	!	!	!	!	!	!	!	!	!	!	!	!	!	!	!	!	!	!	!	!	!	!	!	!	!	!	!	!	!	!	!	!LO:TX:b:t=Tutti.
1GG	.	1GG	2r	2r	2r	2r	2r	2r	2r	.	.	2r	.	.	2r	.	.	2r	.	.	2r	.	.	2r	.	.	2r	.	.	2r	.	.	2r	.	.	2r	.	2r	.	.	1g,<	-ſon	.	2r	2r	2r	2r	2r	2r	1GG
.	.	.	2r	2r	2r	2r	2r	2r	2r	.	.	2r	.	.	2r	.	.	2r	.	.	2r	.	.	2r	.	.	2r	.	.	2r	.	.	2r	.	.	2r	.	2r	.	.	.	.	.	2r	2r	2r	2r	2r	2r	.
*	*	*	*	*2\right	*2\right	*2\right	*	*2\right	*2\right	*	*	*2\right	*	*	*2\right	*	*	*2\right	*	*	*2\right	*	*	*2\right	*	*	*2\right	*	*	*2\right	*	*	*2\right	*	*	*2\right	*	*2\right	*	*	*	*	*	*	*2\right	*2\right	*2\right	*	*2\right	*
!	!	!	!LO:TX:t=P:problem=kreska pseudotaktowa	!LO:TX:b:B:t=tutti	!LO:TX:b:B:t=Tutti	!LO:TX:b:B:t=Tutti	!LO:TX:b:B:t=tutti	!LO:TX:t=P:problem=kreska pseudotaktowa	!LO:TX:t=P:problem=kreska pseudotaktowa	!	!	!LO:TX:t=P:problem=kreska pseudotaktowa	!	!	!LO:TX:t=P:problem=kreska pseudotaktowa	!	!	!LO:TX:t=P:problem=kreska pseudotaktowa	!	!	!LO:TX:t=P:problem=kreska pseudotaktowa	!	!	!LO:TX:t=P:problem=kreska pseudotaktowa	!	!	!	!	!	!LO:TX:t=P:problem=kreska pseudotaktowa	!	!	!	!	!	!LO:TX:t=P:problem=kreska pseudotaktowa	!	!LO:TX:t=P:problem=kreska pseudotaktowa	!	!	!	!	!	!LO:TX:t=P:problem=kreska pseudotaktowa	!	!LO:TX:t=P:problem=kreska pseudotaktowa	!LO:TX:t=P:problem=kreska pseudotaktowa	!LO:TX:t=P:problem=kreska pseudotaktowa	!LO:TX:t=P:problem=kreska pseudotaktowa	!
!LO:TX:t=P:problem=kreska pseudotaktowa	!	!LO:TX:t=P:problem=kreska pseudotaktowa	!LO:TX:b:i:t=Kyrie	!LO:TX:t=P:problem=kreska pseudotaktowa	!LO:TX:t=P:problem=kreska pseudotaktowa	!LO:TX:t=P:problem=kreska pseudotaktowa	!LO:TX:t=P:problem=kreska pseudotaktowa	!LO:TX:b:B:t=tutti.	!	!	!	!	!	!	!	!	!	!	!	!	!	!	!	!	!	!	!LO:TX:t=P:problem=kreska pseudotaktowa	!	!	!LO:TX:a:t=tutti	!	!	!LO:TX:t=P:problem=kreska pseudotaktowa	!	!	!	!	!LO:TX:a:t=tutti	!	!	!LO:TX:t=P:problem=kreska pseudotaktowa	!	!	!LO:TX:b:B:t=tutti	!LO:TX:t=P:problem=kreska pseudotaktowa	!LO:TX:b:i:t=Kyrie	!LO:TX:b:B:t=Kyrie	!LO:TX:b:B:t=tutti	!LO:TX:b:B:t=Tutti	!LO:TX:t=P:problem=kreska pseudotaktowa
2GG/	.	2GG/	2GG/	2B-\	2d\	2g\	2b-/	2gg\	2G\	Kÿ-	[[Chri-	2B-\	Kÿ-	[[Chri-	2d\	Kÿ-	[[Chri-	2g\	Kÿ-	[[Chri-	2b-\	Kÿ-	[[Chri-	2b-\	Ky-	[[Chri-	2G\	Kÿ-	[[Chri-	2B-\	Ky-	[[Chri-	2d\	Kÿ-	[[Chri-	2g\	Kÿ-	2b-\	Ky-	[[Chri-	2b-\	Kÿ-	.	2GG/	2B-\	2d\	2g\	2b-/	2gg\	2GG/
*	*	*custos:BB	*	*	*	*	*	*	*	*	*	*	*	*	*	*	*	*	*	*	*	*	*	*	*	*	*	*	*	*	*	*	*	*	*	*	*	*	*	*	*	*	*	*	*	*	*	*	*	*
!	!	!LO:LB:g=original	!	!	!	!	!	!	!	!	!	!	!	!	!	!	!	!	!	!	!	!	!	!	!	!	!	!	!	!	!	!	!	!	!	!	!	!	!	!	!	!	!	!	!	!	!	!	!	!
=26-	=26-	=26-	=26-	=26-	=26-	=26-	=26-	=26-	=26-	=26-	=26-	=26-	=26-	=26-	=26-	=26-	=26-	=26-	=26-	=26-	=26-	=26-	=26-	=26-	=26-	=26-	=26-	=26-	=26-	=26-	=26-	=26-	=26-	=26-	=26-	=26-	=26-	=26-	=26-	=26-	=26-	=26-	=26-	=26-	=26-	=26-	=26-	=26-	=26-	=26-
!LO:TX:b:t=tutti.	!	!	!	!	!	!	!	!	!	!	!	!	!	!	!	!	!	!	!	!	!	!	!	!	!	!	!	!	!	!	!	!	!	!	!	!	!	!	!	!	!	!	!	!	!	!	!	!	!	!
1BB-	.	1BB-	1BB-	1B-	1d	1f	1dd	1ff	1B-X	-ri-	-ste]]	1B-	-ri-	-ste]]	1d	-ri-	-ste]]	1f	-ri-	-ste]]	1dd	-ri-	-ste]]	1dd	-ri-	-ste]]	1B-X	-ri-	-ste]]	1B-	-ri-	-ste]]	1d	-ri-	-ste]]	1f	-ri-	1dd	-ri-	-ste]]	1dd	-ri-	.	1BB-	1B-	1d	1f	1dd	1ff	1BB-
*	*	*	*	*	*	*	*2\right	*	*	*	*	*	*	*	*	*	*	*	*	*	*	*	*	*	*	*	*	*	*	*	*	*	*	*	*	*	*	*	*	*	*	*	*	*	*	*	*	*2\right	*	*
!	!	!LO:TX:t=P:problem=kreska pseudotaktowa	!	!LO:TX:t=P:problem=kreska pseudotaktowa	!	!	!	!	!	!	!	!LO:TX:t=P:problem=kreska pseudotaktowa	!	!	!	!	!	!LO:TX:t=P:problem=kreska pseudotaktowa	!	!	!	!	!	!	!	!	!	!	!	!	!	!	!	!	!	!LO:TX:t=P:problem=kreska pseudotaktowa	!	!LO:TX:t=P:problem=kreska pseudotaktowa	!	!	!	!	!	!	!LO:TX:t=P:problem=kreska pseudotaktowa	!	!	!LO:TX:t=P:problem=kreska pseudotaktowa	!LO:TX:t=P:problem=kreska pseudotaktowa	!LO:TX:t=P:problem=kreska pseudotaktowa
2FF/	.	2FF/	2FF/	2A/	2f\	2a\	2cc\	2aa\	2F\	-e	.	2A/	-e	.	2f\	-e	.	2a\	-e	.	2cc\	-e	.	2cc\	-e	.	2F\	-e	.	2A/	-e	.	2f\	-e	.	2a\	-e	2cc\	-e	.	2cc\	-e	.	2FF/	2A/	2f\	2a\	2cc\	2aa\	2FF/
*	*	*	*	*	*	*	*	*	*	*	*	*	*	*	*	*	*	*	*	*	*	*	*	*	*	*	*	*	*	*	*	*	*	*	*	*	*	*	*	*	*custos:b	*	*	*	*	*	*	*	*	*
!	!	!	!	!	!	!	!	!	!	!	!	!	!	!	!	!	!	!	!	!	!	!	!	!	!	!	!	!	!	!	!	!	!	!	!	!	!	!	!	!	!LO:LB:g=original	!	!	!	!	!	!	!	!	!
=27-	=27-	=27-	=27-	=27-	=27-	=27-	=27-	=27-	=27-	=27-	=27-	=27-	=27-	=27-	=27-	=27-	=27-	=27-	=27-	=27-	=27-	=27-	=27-	=27-	=27-	=27-	=27-	=27-	=27-	=27-	=27-	=27-	=27-	=27-	=27-	=27-	=27-	=27-	=27-	=27-	=27-	=27-	=27-	=27-	=27-	=27-	=27-	=27-	=27-	=27-
*	*	*	*	*col	*	*	*	*	*	*	*	*	*	*	*	*	*	*col	*	*	*	*	*	*	*	*	*	*	*	*	*	*	*	*	*	*col	*	*	*	*	*	*	*	*	*col	*	*	*	*	*
1GG	-	1GG	1GG	2B-\	1d	1g	1b-	1gg	1G	.	.	2B-\	e-	.	1d	e-	.	1g	e-	.	1b-	e-	.	1b-	e-	.	1G	e-	.	2B-\	e-	.	1d	e-	.	1g	e-	1b-	e-	.	1b-	e-	.	1GG	2B-\	1d	1g	1b-	1gg	1GG
!	!	!	!	!	!	!	!	!	!	!	!	!	!	!	!	!	!	!	!	!	!	!	!	!	!	!	!	!	!	!LO:TX:t=P:problem=kreska pseudotaktowa	!	!	!	!	!	!	!	!	!	!	!	!	!	!	!	!	!	!	!	!
.	.	.	.	1G	.	.	.	.	.	.	.	1G	-lei-	.	.	.	.	.	.	.	.	.	.	.	.	.	.	.	.	1G	.	.	.	.	.	.	.	.	.	.	.	.	.	.	1G	.	.	.	.	.
!	!	!	!	!	!LO:SIC:v:s=2e-	!	!	!	!	!	!	!	!	!	!	!	!	!	!	!	!	!	!	!	!	!	!	!	!	!	!	!	!	!	!	!	!	!	!	!	!	!	!	!	!	!LO:SIC:v:s=2e-	!	!	!	!
!LO:TX:t=P:problem=kreska pseudotaktowa	!	!LO:TX:t=P:problem=kreska pseudotaktowa	!LO:TX:t=P:problem=kreska pseudotaktowa	!	!LO:TX:t=P:problem=kreska pseudotaktowa	!LO:TX:t=P:problem=kreska pseudotaktowa	!LO:TX:t=P:problem=kreska pseudotaktowa	!LO:TX:t=P:problem=kreska pseudotaktowa	!LO:TX:t=P:problem=kreska pseudotaktowa	!	!	!	!	!	!LO:TX:t=P:problem=kreska pseudotaktowa	!	!	!LO:TX:t=P:problem=przekreślona synkopowana wartość	!	!	!LO:TX:t=P:problem=kreska pseudotaktowa	!	!	!LO:TX:t=P:problem=kreska pseudotaktowa	!	!	!LO:TX:t=P:problem=kreska pseudotaktowa	!	!	!	!	!	!LO:TX:t=P:problem=kreska pseudotaktowa	!	!	!LO:TX:t=P:problem=przekreślona synkopowana wartość	!	!LO:TX:t=P:problem=kreska pseudotaktowa	!	!	!LO:TX:t=P:problem=kreska pseudotaktowa	!	!	!LO:TX:t=P:problem=kreska pseudotaktowa	!	!LO:TX:t=P:problem=kreska pseudotaktowa	!LO:TX:t=P:problem=kreska pseudotaktowa	!LO:TX:t=P:problem=kreska pseudotaktowa	!LO:TX:t=P:problem=kreska pseudotaktowa	!LO:TX:t=P:problem=kreska pseudotaktowa
2C/	-	2C/	2C/	.	2e\	2g\	2cc\	2gg\	2C/	e-	.	.	.	.	2e-X\	.	.	1g\	-lei-	.	2cc\	.	.	2cc\	.	.	2C/	.	.	.	.	.	2e-X\	.	.	1g\	-lei-	2cc\	.	.	2cc\	.	.	2C/	.	2e\	2g\	2cc\	2gg\	2C/
=28-	=28-	=28-	=28-	=28-	=28-	=28-	=28-	=28-	=28-	=28-	=28-	=28-	=28-	=28-	=28-	=28-	=28-	=28-	=28-	=28-	=28-	=28-	=28-	=28-	=28-	=28-	=28-	=28-	=28-	=28-	=28-	=28-	=28-	=28-	=28-	=28-	=28-	=28-	=28-	=28-	=28-	=28-	=28-	=28-	=28-	=28-	=28-	=28-	=28-	=28-
*	*	*	*	*	*	*	*	*	*	*	*	*	*	*	*	*	*	*	*	*	*	*	*	*	*	*	*	*	*	*col	*	*	*	*	*	*	*	*	*	*	*	*	*	*	*	*	*	*	*	*
1D	.	1D	1D	2d\	1d	1g	1a	1gg	1D	-lei-	.	2d\	.	.	1d	-lei-	.	.	.	.	1a	-lei-	.	1a	-lei-	.	1D	-lei-	.	2d\	-lei-	.	1d	-lei-	.	.	.	1a	-lei-	.	1a	-lei-	.	1D	2d\	1d	1g	1a	1gg	1D
!	!	!	!	!LO:TX:t=P:problem=kreska pseudotaktowa	!	!	!	!	!	!	!	!	!	!	!	!	!	!LO:TX:t=P:problem=kreska pseudotaktowa	!	!	!	!	!	!	!	!	!	!	!	!	!	!	!	!	!	!LO:TX:t=P:problem=kreska pseudotaktowa	!	!	!	!	!	!	!	!	!LO:TX:t=P:problem=kreska pseudotaktowa	!	!	!	!	!
.	.	.	.	1A	.	.	.	.	.	.	.	1B-	.	.	.	.	.	1f#X	.	.	.	.	.	.	.	.	.	.	.	1A	.	.	.	.	.	1f#X	.	.	.	.	.	.	.	.	1A	.	.	.	.	.
!	!	!LO:TX:t=P:problem=kreska pseudotaktowa	!	!	!	!	!	!	!	!	!	!	!	!	!	!	!	!	!	!	!	!	!	!	!	!	!	!	!	!	!	!	!	!	!	!	!	!LO:TX:t=P:problem=kreska pseudotaktowa	!	!	!	!	!	!	!	!	!	!	!	!LO:TX:t=P:problem=kreska pseudotaktowa
2D/	4	2D/	2D/	.	2d\	2f#X\	2a/	2ff#X\	2D/	.	.	.	.	.	2d\	.	.	.	.	.	2a\	.	.	2a\	.	.	2D/	.	.	.	.	.	2d\	.	.	.	.	2a\	.	.	2a\	.	.	2D/	.	2d\	2f#X\	2a/	2ff#X\	2D/
.	3	.	.	.	.	.	.	.	.	.	.	.	.	.	.	.	.	.	.	.	.	.	.	.	.	.	.	.	.	.	.	.	.	.	.	.	.	.	.	.	.	.	.	.	.	.	.	.	.	.
*	*	*	*	*Xcol	*	*	*	*	*	*	*	*	*	*	*	*	*	*Xcol	*	*	*	*	*	*	*	*	*	*	*	*Xcol	*	*	*	*	*	*Xcol	*	*	*	*	*	*	*	*	*Xcol	*	*	*	*	*
=29-	=29-	=29-	=29-	=29-	=29-	=29-	=29-	=29-	=29-	=29-	=29-	=29-	=29-	=29-	=29-	=29-	=29-	=29-	=29-	=29-	=29-	=29-	=29-	=29-	=29-	=29-	=29-	=29-	=29-	=29-	=29-	=29-	=29-	=29-	=29-	=29-	=29-	=29-	=29-	=29-	=29-	=29-	=29-	=29-	=29-	=29-	=29-	=29-	=29-	=29-
1.GG;	.	1.GG;	1.GG;	1.B-;	1.d;	1.g;	1.g;	1.gg;	1.GG;	-ſon	.	1.B-;	-ſon	.	1.d;	-ſon	.	1.g;	-ſon,	.	1.g;	-ſon	.	1.g;	-ſon	.	1.GG;	-ſon	.	1.B-;	-ſon,	.	1.d;	-ſon	.	1.g;	-ſon,	1.g;	-ſon,	.	1.g;	-ſon,	.	1.GG;	1.B-;	1.d;	1.g;	1.g;	1.gg;	1.GG;
=30||	=30||	=30||	=30||	=30||	=30||	=30||	=30||	=30||	=30||	=30||	=30||	=30||	=30||	=30||	=30||	=30||	=30||	=30||	=30||	=30||	=30||	=30||	=30||	=30||	=30||	=30||	=30||	=30||	=30||	=30||	=30||	=30||	=30||	=30||	=30||	=30||	=30||	=30||	=30||	=30||	=30||	=30||	=30||	=30||	=30||	=30||	=30||	=30||	=30||	=30||;;
*	*	*	*2\right	*	*	*	*	*	*	*	*	*	*	*	*	*	*	*	*	*	*	*	*	*	*	*	*	*	*	*	*	*	*	*	*	*	*	*	*	*	*	*	*	*2\right	*	*	*	*	*	*
!LO:TX:b:i:t=Chriſte	!	!LO:TX:b:i:t=Chriſte	!LO:TX:b:i:t=Chriſte	!LO:TX:b:i:t=Chriſte	!LO:TX:b:i:t=Chriſte.	!LO:TX:b:i:t=Chriſte	!LO:TX:b:i:t=Chriſte.	!LO:TX:b:i:t=Chriſte	!	!	!	!	!	!	!	!	!	!	!	!	!	!	!	!	!	!	!	!	!	!	!	!	!	!	!	!	!	!	!	!	!	!	!	!LO:TX:b:i:t=Chriſte	!LO:TX:b:i:t=Chriſte	!LO:TX:b:i:t=Chriſte	!LO:TX:b:i:t=Chriſte	!LO:TX:b:i:t=Chriſte	!LO:TX:b:i:t=Chriſte	!LO:TX:b:t=Christe
2G\	.	2G\	2G\	2B-\	2d\	2g\	2b-/	2gg\	2G\	Chri-	.	2B-\	Chri-	.	2d\	Chri-	.	2g\	Chri-	.	2b-\	Chri-	.	2b-\	Chri-	.	2G\	Chri-	.	2B-\	Chri-	.	2d\	Chri-	.	2g\	CHriſ-	2b-\	Chri-	.	2b-\	Chri-	.	2G\	2B-\	2d\	2g\	2b-/	2gg\	2G\
2G\	.	2G\	2G\	2d\	2d\	2g\	2b-/	2gg\	2G\	-ste	.	2d\	.	.	2d\	-ste	.	2g\	-ſte	.	2b-\	-ſte	.	2b-\	-ſte	.	2G\	-ste	.	2d\	-ſte	.	2d\	-ste	.	2g\	-te	2b-\	-ste	.	2b-\	-ste	.	2G\	2d\	2d\	2g\	2b-/	2gg\	2G\
!	!	!	!	!	!	!	!	!	!	!	!	!	!	!	!	!	!	!	!	!	!	!	!	!	!	!	!LO:SIC:v:s=2A	!	!	!	!	!	!	!	!	!	!	!	!	!	!	!	!	!	!	!	!	!	!	!
!LO:TX:t=P:problem=kreska pseudotaktowa	!	!LO:TX:t=P:problem=kreska pseudotaktowa	!LO:TX:t=P:problem=kreska pseudotaktowa	!LO:TX:t=P:problem=kreska pseudotaktowa	!	!LO:TX:t=P:problem=kreska pseudotaktowa	!LO:TX:t=P:problem=kreska pseudotaktowa	!LO:TX:t=P:problem=kreska pseudotaktowa	!LO:TX:t=P:problem=kreska pseudotaktowa	!	!	!LO:TX:t=P:problem=kreska pseudotaktowa	!	!	!	!	!	!LO:TX:t=P:problem=kreska pseudotaktowa	!	!	!LO:TX:t=P:problem=kreska pseudotaktowa	!	!	!LO:TX:t=P:problem=kreska pseudotaktowa	!	!	!LO:TX:t=P:problem=kreska pseudotaktowa	!	!	!LO:TX:t=P:problem=kreska pseudotaktowa	!	!	!	!	!	!LO:TX:t=P:problem=kreska pseudotaktowa	!	!LO:TX:t=P:problem=kreska pseudotaktowa	!	!	!LO:TX:t=P:problem=kreska pseudotaktowa	!	!	!LO:TX:t=P:problem=kreska pseudotaktowa	!LO:TX:t=P:problem=kreska pseudotaktowa	!	!LO:TX:t=P:problem=kreska pseudotaktowa	!LO:TX:t=P:problem=kreska pseudotaktowa	!LO:TX:t=P:problem=kreska pseudotaktowa	!LO:TX:t=P:problem=kreska pseudotaktowa
2A\	6	2A\	2A\	2c\	4f\	2f\	2cc\	2ff\	2A\	.	.	2c\	-ſte	.	4f\	.	.	2f\	.	.	2cc\	e-	.	2cc\	e-	.	2G\	e-	.	2c\	e-	.	4f\	e-	.	2f\	e-	2cc\	e-	.	2cc\	e-	.	2A\	2c\	4f\	2f\	2cc\	2ff\	2A\
!	!	!	!	!	!LO:TX:t=P:problem=kreska pseudotaktowa	!	!	!	!	!	!	!	!	!	!LO:TX:t=P:problem=kreska pseudotaktowa	!	!	!	!	!	!	!	!	!	!	!	!	!	!	!	!	!	!LO:TX:t=P:problem=kreska pseudotaktowa	!	!	!	!	!	!	!	!	!	!	!	!	!LO:TX:t=P:problem=kreska pseudotaktowa	!	!	!	!
.	.	.	.	.	4e\	.	.	.	.	.	.	.	.	.	4e\	.	.	.	.	.	.	.	.	.	.	.	.	.	.	.	.	.	4e\	.	.	.	.	.	.	.	.	.	.	.	.	4e\	.	.	.	.
=31-	=31-	=31-	=31-	=31-	=31-	=31-	=31-	=31-	=31-	=31-	=31-	=31-	=31-	=31-	=31-	=31-	=31-	=31-	=31-	=31-	=31-	=31-	=31-	=31-	=31-	=31-	=31-	=31-	=31-	=31-	=31-	=31-	=31-	=31-	=31-	=31-	=31-	=31-	=31-	=31-	=31-	=31-	=31-	=31-	=31-	=31-	=31-	=31-	=31-	=31-
*	*	*	*	*	*	*col	*	*col	*	*	*	*	*	*	*	*	*	*	*	*	*	*	*	*	*	*	*	*	*	*	*	*	*	*	*	*	*	*	*	*	*	*	*	*	*	*	*col	*	*col	*
4B-X\	.	4B-X\	4B-X\	1B-	4d\	2f\	1dd	2ff\	4B-X\	e-	.	1B-	e-	.	4d\	e-	.	2f\	.	.	1dd	-lei-	.	1dd	.	.	4B-\	.	.	1.B-	-lei-	.	4d\	.	.	2f\	-lei-	1dd	-lei-	.	1dd	.	.	4B-X\	1B-	4d\	2f\	1dd	2ff\	4B-X\
4A\	.	4A\	4A\	.	4c\	.	.	.	4A\	-le-	.	.	.	.	4c\	.	.	.	.	.	.	.	.	.	.	.	4A\	.	.	.	.	.	4c\	.	.	.	.	.	.	.	.	.	.	4A\	.	4c\	.	.	.	4A\
!	!	!	!	!	!	!	!	!	!	!	!	!	!	!	!	!	!	!LO:TX:t=P:problem=kreska pseudotaktowa	!	!	!	!	!	!	!	!	!	!	!	!	!	!	!	!	!	!LO:TX:t=P:problem=kreska pseudotaktowa	!	!	!	!	!	!	!	!	!	!	!	!	!	!
4G\	.	4G\	4G\	.	4B-\	1g	.	1gg	4G\	.	.	.	.	.	4B-\	.	.	1g	e-	.	.	.	.	.	.	.	4G\	.	.	.	.	.	4B-\	.	.	1g	-son	.	.	.	.	.	.	4G\	.	4B-\	1g	.	1gg	4G\
4F\	.	4F\	4F\	.	4A/	.	.	.	4F\	.	.	.	.	.	4A/	.	.	.	.	.	.	.	.	.	.	.	4F\	.	.	.	.	.	4A/	.	.	.	.	.	.	.	.	.	.	4F\	.	4A/	.	.	.	4F\
!	!	!LO:SIC:v:s=2E-	!	!	!	!	!LO:TX:t=P:problem=kreska pseudotaktowa	!	!	!	!	!	!	!	!	!	!	!	!	!	!	!	!	!	!	!	!	!	!	!	!	!	!	!	!	!	!	!	!	!	!	!	!	!	!	!	!	!	!	!
!LO:TX:t=P:problem=kreska pseudotaktowa	!	!LO:TX:t=P:problem=kreska pseudotaktowa	!LO:TX:t=P:problem=kreska pseudotaktowa	!	!LO:TX:t=P:problem=kreska pseudotaktowa	!	!LO:TX:a:t=P:problem=♭ above	!	!LO:TX:t=P:problem=kreska pseudotaktowa	!	!	!LO:TX:t=P:problem=kreska pseudotaktowa	!	!	!LO:TX:t=P:problem=kreska pseudotaktowa	!	!	!	!	!	!LO:TX:t=P:problem=kreska pseudotaktowa	!	!	!LO:TX:t=P:problem=kreska pseudotaktowa	!	!	!LO:TX:t=P:problem=kreska pseudotaktowa	!	!	!	!	!	!LO:TX:t=P:problem=kreska pseudotaktowa	!	!	!	!	!LO:TX:t=P:problem=kreska pseudotaktowa	!	!	!	!	!	!LO:TX:t=P:problem=kreska pseudotaktowa	!	!LO:TX:t=P:problem=kreska pseudotaktowa	!	!LO:TX:t=P:problem=kreska pseudotaktowa	!	!LO:TX:t=P:problem=kreska pseudotaktowa
2E-X\	.	2E/	2E-X\	2B-\	2G/	.	2ee-X\	.	2E-X\	.	.	2B-\	-lei-	.	2G/	.	.	.	.	.	2ee-X\	-ſon	.	2ee-X\	.	.	2E-X\	.	.	.	.	.	2G/	.	.	.	.	2ee-X\	-ſon	.	2ee-X\	.	.	2E-X\	2B-\	2G/	.	2ee-X\	.	2E-X\
*	*	*	*	*	*	*Xcol	*	*Xcol	*	*	*	*	*	*	*	*	*	*	*	*	*	*	*	*	*	*	*	*	*	*	*	*	*	*	*	*	*	*	*	*	*	*	*	*	*	*	*Xcol	*	*Xcol	*
=32-	=32-	=32-	=32-	=32-	=32-	=32-	=32-	=32-	=32-	=32-	=32-	=32-	=32-	=32-	=32-	=32-	=32-	=32-	=32-	=32-	=32-	=32-	=32-	=32-	=32-	=32-	=32-	=32-	=32-	=32-	=32-	=32-	=32-	=32-	=32-	=32-	=32-	=32-	=32-	=32-	=32-	=32-	=32-	=32-	=32-	=32-	=32-	=32-	=32-	=32-
1F	.	1F	1F	1B-	1c	1f	1cc	1ff	1F	.	.	1B-	.	.	1c	.	.	1f	-lei-	.	1cc	e-	.	1cc	-lei-	.	1F	.	.	1B-	.	.	1c	.	.	1f	e-	1cc	e-	.	1cc	-lei-	.	1F	1B-	1c	1f	1cc	1ff	1F
!	!	!LO:TX:t=P:problem=kreska pseudotaktowa	!	!	!	!LO:TX:t=P:problem=kreska pseudotaktowa	!	!	!	!	!	!	!	!	!	!	!	!	!	!	!	!	!	!	!	!	!	!	!	!LO:TX:t=P:problem=kreska pseudotaktowa	!	!	!	!	!	!	!	!	!	!	!LO:TX:t=P:problem=kreska pseudotaktowa	!	!	!	!	!	!LO:TX:t=P:problem=kreska pseudotaktowa	!	!	!LO:TX:t=P:problem=kreska pseudotaktowa
2F\	4	2F\	2F\	2A/	2c\	2f\	2cc\	2ff\	2F\	i-	.	2A/	-ſon	.	2c\	-lei-	.	2f\	.	.	2cc\	-lei-	.	2cc\	.	.	2F\	-lei-	.	2A/	-ſon	.	2c\	-lei-	.	2f\	-lei-	2cc\	-lei-	.	2cc\	.	.	2F\	2A/	2c\	2f\	2cc\	2ff\	2F\
.	3	.	.	.	.	.	.	.	.	.	.	.	.	.	.	.	.	.	.	.	.	.	.	.	.	.	.	.	.	.	.	.	.	.	.	.	.	.	.	.	.	.	.	.	.	.	.	.	.	.
=33-	=33-	=33-	=33-	=33-	=33-	=33-	=33-	=33-	=33-	=33-	=33-	=33-	=33-	=33-	=33-	=33-	=33-	=33-	=33-	=33-	=33-	=33-	=33-	=33-	=33-	=33-	=33-	=33-	=33-	=33-	=33-	=33-	=33-	=33-	=33-	=33-	=33-	=33-	=33-	=33-	=33-	=33-	=33-	=33-	=33-	=33-	=33-	=33-	=33-	=33-
!LO:TX:t=P:problem=kreska pseudotaktowa	!	!LO:TX:t=P:problem=kreska pseudotaktowa	!LO:TX:t=P:problem=kreska pseudotaktowa	!LO:TX:t=P:problem=kreska pseudotaktowa	!LO:TX:t=P:problem=kreska pseudotaktowa	!	!LO:TX:t=P:problem=kreska pseudotaktowa	!LO:TX:t=P:problem=kreska pseudotaktowa	!LO:TX:t=P:problem=kreska pseudotaktowa	!	!	!LO:TX:t=P:problem=kreska pseudotaktowa	!	!	!LO:TX:t=P:problem=kreska pseudotaktowa	!	!	!LO:TX:t=P:problem=kreska pseudotaktowa	!	!	!LO:TX:t=P:problem=kreska pseudotaktowa	!	!	!LO:TX:t=P:problem=kreska pseudotaktowa	!	!	!LO:TX:t=P:problem=kreska pseudotaktowa	!	!	!LO:TX:t=P:problem=kreska pseudotaktowa	!	!	!LO:TX:t=P:problem=kreska pseudotaktowa	!	!	!LO:TX:t=P:problem=kreska pseudotaktowa	!	!LO:TX:t=P:problem=kreska pseudotaktowa	!	!	!LO:TX:t=P:problem=kreska pseudotaktowa	!	!	!LO:TX:t=P:problem=kreska pseudotaktowa	!LO:TX:t=P:problem=kreska pseudotaktowa	!LO:TX:t=P:problem=kreska pseudotaktowa	!	!LO:TX:t=P:problem=kreska pseudotaktowa	!LO:TX:t=P:problem=kreska pseudotaktowa	!LO:TX:t=P:problem=kreska pseudotaktowa
1.BB-	.	1.BB-	1.BB-	1.B-	1.d	1.f	1.b-	1.ff	1.BB-	-ſon	.	1.B-	e-	.	1.d	-ſon	.	1.f	-ſon	.	1.b-	-son	.	1.b-	-son	.	1.BB-	-ſon	.	1.B-	e-	.	1.d	-ſon	.	1.f	-ſon	1.b-	-son	.	1.b-	-ſon,	.	1.BB-	1.B-	1.d	1.f	1.b-	1.ff	1.BB-
*	*	*	*	*	*custos:c	*	*	*	*	*	*	*	*	*	*	*	*	*	*	*	*	*	*	*	*	*	*	*	*	*	*	*	*	*	*	*	*	*	*	*	*	*	*	*	*	*	*	*	*	*
!	!	!	!	!	!LO:LB:g=original	!	!	!	!	!	!	!	!	!	!	!	!	!	!	!	!	!	!	!	!	!	!	!	!	!	!	!	!	!	!	!	!	!	!	!	!	!	!	!	!	!	!	!	!	!
=34-	=34-	=34-	=34-	=34-	=34-	=34-	=34-	=34-	=34-	=34-	=34-	=34-	=34-	=34-	=34-	=34-	=34-	=34-	=34-	=34-	=34-	=34-	=34-	=34-	=34-	=34-	=34-	=34-	=34-	=34-	=34-	=34-	=34-	=34-	=34-	=34-	=34-	=34-	=34-	=34-	=34-	=34-	=34-	=34-	=34-	=34-	=34-	=34-	=34-	=34-
*	*	*	*	*	*	*	*	*	*	*ij	*	*	*	*	*	*ij	*	*	*	*	*	*ij	*	*	*	*	*	*ij	*	*	*	*	*	*	*	*	*ij	*	*ij	*	*	*ij	*	*	*	*	*	*	*	*
1F	.	1F	1F	2A/	2c\	2f\	2cc\	2ff\	2F\	Chri-	.	2A/	-lei-	.	2c\	Chri-	.	2f\	e-	.	2cc\	Chri-	.	2cc\	e-	.	2F\	Chri-	.	2A/	-li-	.	2c\	Chri-	.	2f\	CHri-	2cc\	Chri-	.	2cc\	Chri-	.	1F	2A/	2c\	2f\	2cc\	2ff\	1F
.	.	.	.	2A/	2A/	2f\	2cc\	2ff\	2F\	-ste	.	2A/	.	.	2A/	-ste	.	2f\	-lei-	.	2cc\	-ſte	.	2cc\	-lei-	.	2F\	-ste	.	2A/	-ſi-	.	2A/	-ste	.	2f\	-ſte	2cc\	-ste	.	2cc\	-ste	.	.	2A/	2A/	2f\	2cc\	2ff\	.
!	!	!	!	!	!	!	!	!	!	!	!	!	!	!	!LO:SIC:v:s=2B-	!	!	!	!	!	!	!	!	!	!	!	!	!	!	!	!	!	!	!	!	!	!	!	!	!	!	!	!	!	!	!	!	!	!	!
!	!	!LO:TX:t=P:problem=kreska pseudotaktowa	!LO:TX:t=P:problem=kreska pseudotaktowa	!	!LO:TX:t=P:problem=kreska pseudotaktowa	!LO:TX:t=P:problem=kreska pseudotaktowa	!LO:TX:t=P:problem=kreska pseudotaktowa	!LO:TX:t=P:problem=kreska pseudotaktowa	!LO:TX:t=P:problem=kreska pseudotaktowa	!	!	!	!	!	!LO:TX:t=P:problem=kreska pseudotaktowa	!	!	!LO:TX:t=P:problem=kreska pseudotaktowa	!	!	!LO:TX:t=P:problem=kreska pseudotaktowa	!	!	!LO:TX:t=P:problem=kreska pseudotaktowa	!	!	!LO:TX:t=P:problem=kreska pseudotaktowa	!	!	!LO:TX:t=P:problem=kreska pseudotaktowa	!	!	!LO:TX:t=P:problem=kreska pseudotaktowa	!	!	!LO:TX:t=P:problem=kreska pseudotaktowa	!	!LO:TX:t=P:problem=kreska pseudotaktowa	!	!	!LO:TX:t=P:problem=kreska pseudotaktowa	!	!	!LO:TX:t=P:problem=kreska pseudotaktowa	!	!LO:TX:t=P:problem=kreska pseudotaktowa	!LO:TX:t=P:problem=kreska pseudotaktowa	!LO:TX:t=P:problem=kreska pseudotaktowa	!LO:TX:t=P:problem=kreska pseudotaktowa	!LO:TX:t=P:problem=kreska pseudotaktowa
2D/	6	2D/	2D/	2F/	2B-\	2f\	2dd\	2gg\	2D/	e-	.	2F/	-ſon.	.	2c\	e-	.	2f\	.	.	2dd\	e-	.	2dd\	.	.	2D/	e-	.	2F/	-thi	.	2B-\	e-	.	2f\	e-	2dd\	e-	.	2dd\	e-	.	2D/	2F/	2B-\	2f\	2dd\	2gg\	2D/
*custos:C	*	*	*custos:C	*	*	*custos:e	*	*	*	*	*	*	*	*	*	*	*	*	*	*	*	*	*	*	*	*	*	*	*	*	*	*	*	*	*	*	*	*	*	*	*	*	*	*	*	*	*	*	*custos:ee	*
!LO:LB:g=original	!	!	!LO:LB:g=original	!	!	!LO:LB:g=original	!	!	!	!	!	!	!	!	!	!	!	!	!	!	!	!	!	!	!	!	!	!	!	!	!	!	!	!	!	!	!	!	!	!	!	!	!	!	!	!	!	!	!LO:LB:g=original	!
=35-	=35-	=35-	=35-	=35-	=35-	=35-	=35-	=35-	=35-	=35-	=35-	=35-	=35-	=35-	=35-	=35-	=35-	=35-	=35-	=35-	=35-	=35-	=35-	=35-	=35-	=35-	=35-	=35-	=35-	=35-	=35-	=35-	=35-	=35-	=35-	=35-	=35-	=35-	=35-	=35-	=35-	=35-	=35-	=35-	=35-	=35-	=35-	=35-	=35-	=35-
*	*	*	*	*	*	*	*	*	*	*	*	*	*	*	*	*	*	*	*	*	*	*	*	*	*	*	*	*	*	*	*ij	*	*	*	*	*	*	*	*	*	*	*	*	*	*	*	*	*	*	*
!	!	!	!	!LO:TX:t=P:problem=kreska pseudotaktowa	!	!	!	!	!	!	!	!LO:TX:t=P:problem=kreska pseudotaktowa	!	!	!	!	!	!	!	!	!	!	!	!	!	!	!	!	!	!	!	!	!	!	!	!	!	!	!	!	!	!	!	!	!LO:TX:t=P:problem=kreska pseudotaktowa	!	!	!	!	!
2.C/	.	2.C/	2.C/	1.G	1c	2.e-X\	1ee-X	2.ee-X\	2.C/	-le-	.	1.G	.	.	1.c	.	.	2.e-X\	-ſon.	.	1ee-X	-lei-	.	1ee-X	-son	.	2.C/	.	.	1.G	e-	.	1.c	.	.	2.e-X\	-lei-	1ee-X	-lei-	.	1ee-X	.	.	2.C/	1.G	1c	2.e-X\	1ee-X	2.ee-X\	2.C/
4D/	-	4D/	4D/	.	.	4f\	.	4ff\	4D/	.	.	.	.	.	.	.	.	4f\	.	.	.	.	.	.	.	.	4D\	.	.	.	.	.	.	.	.	4f\	.	.	.	.	.	.	.	4D/	.	.	4f\	.	4ff\	4D\
*	*	*	*	*	*	*	*	*	*	*	*	*	*	*	*	*	*	*	*	*	*	*	*	*	*	*	*	*	*	*	*	*	*	*	*	*	*	*	*	*	*	*	*	*	*	*	*	*	*	*custos:E
!	!	!	!	!	!	!	!	!	!LO:TX:a:t=P:problem:♭ above	!	!	!	!	!	!	!	!	!	!	!	!	!	!	!	!	!	!	!	!	!	!	!	!	!	!	!	!	!	!	!	!	!	!	!	!	!	!LO:TX:t=P:problem=kreska pseudotaktowa	!	!LO:LB:g=original	!
!LO:TX:t=P:problem=kreska pseudotaktowa	!	!LO:TX:t=P:problem=kreska pseudotaktowa	!LO:TX:t=P:problem=kreska pseudotaktowa	!	!LO:TX:t=P:problem=kreska pseudotaktowa	!LO:TX:t=P:problem=kreska pseudotaktowa	!LO:TX:t=P:problem=kreska pseudotaktowa	!LO:TX:t=P:problem=kreska pseudotaktowa	!LO:TX:t=P:problem=kreska pseudotaktowa	!	!	!	!	!	!	!	!	!	!	!	!LO:TX:t=P:problem=kreska pseudotaktowa	!	!	!LO:TX:t=P:problem=kreska pseudotaktowa	!	!	!LO:TX:t=P:problem=kreska pseudotaktowa	!	!	!	!	!	!	!	!	!LO:TX:t=P:problem=kreska pseudotaktowa	!	!LO:TX:t=P:problem=kreska pseudotaktowa	!	!	!LO:TX:t=P:problem=kreska pseudotaktowa	!	!	!LO:TX:t=P:problem=kreska pseudotaktowa	!	!LO:TX:t=P:problem=kreska pseudotaktowa	!	!LO:TX:t=P:problem=kreska pseudotaktowa	!LO:TX:t=P:problem=kreska pseudotaktowa	!LO:TX:t=P:problem=kreska pseudotaktowa
2E-X\	6	2E-X/	2E-X\	.	2c\	2g\	2ee-X\	2gg\	2E-X\	.	.	.	.	.	.	.	.	2g\	.	.	2ee-\	-ſon	.	2ee-X\	.	.	2E-X\	.	.	.	.	.	.	.	.	2g\	-son	2ee-X\	-ſon	.	2ee-X\	.	.	2E-X\	.	2c\	2g\	2ee-X\	2gg\	2E-X\
*	*	*	*	*custos:A	*	*	*	*	*custos:F	*	*	*	*	*	*	*	*	*	*	*	*	*	*	*	*	*	*	*	*	*	*	*	*	*	*	*	*	*	*	*	*	*	*	*	*	*	*custos:f	*custos:dd	*custos:dd	*
!	!	!	!	!LO:LB:g=original	!	!	!	!	!LO:LB:g=original	!	!	!	!	!	!	!	!	!LO:LB:g=original	!	!	!LO:LB:g=original	!	!	!	!	!	!LO:LB:g=original	!	!	!	!	!	!	!	!	!LO:LB:g=original	!	!LO:LB:g=original	!	!	!	!	!	!	!	!	!LO:LB:g=original	!LO:LB:g=original	!LO:LB:g=original	!
=36-	=36-	=36-	=36-	=36-	=36-	=36-	=36-	=36-	=36-	=36-	=36-	=36-	=36-	=36-	=36-	=36-	=36-	=36-	=36-	=36-	=36-	=36-	=36-	=36-	=36-	=36-	=36-	=36-	=36-	=36-	=36-	=36-	=36-	=36-	=36-	=36-	=36-	=36-	=36-	=36-	=36-	=36-	=36-	=36-	=36-	=36-	=36-	=36-	=36-	=36-
*col	*	*col	*col	*col	*	*col	*	*col	*	*	*	*	*	*	*	*	*	*	*	*	*	*	*	*	*	*	*col	*	*	*col	*	*	*	*	*	*	*	*	*	*	*	*	*	*col	*col	*	*col	*	*col	*col
2F\	6 5	2F\	2F\	2A/	1c	2f\	1dd	2ff\	2F\	.	.	2A/	.	.	1c	-lei-	.	2f\	.	.	1dd	e-	.	1dd	.	.	2F\	lei-	.	2A/	-lei-	.	1c	-lei-	.	2f\	e-	1dd	e-	.	1dd	-lei-	.	2F\	2A/	1c	2f\	1dd	2ff\	2F\
!	!	!LO:TX:t=P:problem=kreska pseudotaktowa	!LO:TX:t=P:problem=kreska pseudotaktowa	!	!	!	!	!	!	!	!	!	!	!	!	!	!	!	!	!	!	!	!	!	!	!	!	!	!	!	!	!	!	!	!	!LO:TX:t=P:problem=kreska pseudotaktowa	!	!	!	!	!	!	!	!	!	!	!	!	!	!LO:TX:t=P:problem=kreska pseudotaktowa
1G	4	1G	1G	1G	.	1d	.	1dd	1G	i-	.	1G	.	.	.	.	.	1d	.	.	.	.	.	.	.	.	1G	.	.	1G	.	.	.	.	.	1d	-lei-	.	.	.	.	.	.	1G	1G	.	1d	.	1dd	1G
!	!	!	!	!	!	!	!	!	!	!	!	!	!	!	!LO:TX:t=P:problem=kreska pseudotaktowa	!	!	!	!	!	!	!	!	!	!	!	!	!	!	!	!	!	!LO:TX:t=P:problem=kreska pseudotaktowa	!	!	!	!	!	!	!	!	!	!	!	!	!LO:TX:a:t=P:problem=# above	!	!	!	!
!	!	!	!	!	!	!	!	!	!	!	!	!	!	!	!LO:N:acc=#	!	!	!	!	!	!	!	!	!	!	!	!	!	!	!	!	!	!LO:N:acc=#	!	!	!	!	!	!	!	!	!	!	!	!	!LO:N:acc=#	!	!	!	!
.	3	.	.	.	2B#X\	.	2dd\	.	.	.	.	.	.	.	2Bn\	.	.	.	.	.	2dd\	-lei-	.	2dd\	.	.	.	.	.	.	.	.	2Bn\	.	.	.	.	2dd\	-lei-	.	2dd\	.	.	.	.	2Bn\	.	2dd\	.	.
*Xcol	*	*Xcol	*Xcol	*Xcol	*	*Xcol	*	*Xcol	*	*	*	*	*	*	*	*	*	*	*	*	*	*	*	*	*	*	*Xcol	*	*	*Xcol	*	*	*	*	*	*	*	*	*	*	*	*	*	*Xcol	*Xcol	*	*Xcol	*	*Xcol	*Xcol
!	!	!	!	!	!	!	!	!	!	!	!	!	!	!	!	!	!	!	!	!	!	!	!	!	!	!	!	!	!	!	!	!	!LO:LB:g=original	!	!	!	!	!	!	!	!	!	!	!LO:LB:g=original	!	!	!	!	!	!
=37-	=37-	=37-	=37-	=37-	=37-	=37-	=37-	=37-	=37-	=37-	=37-	=37-	=37-	=37-	=37-	=37-	=37-	=37-	=37-	=37-	=37-	=37-	=37-	=37-	=37-	=37-	=37-	=37-	=37-	=37-	=37-	=37-	=37-	=37-	=37-	=37-	=37-	=37-	=37-	=37-	=37-	=37-	=37-	=37-	=37-	=37-	=37-	=37-	=37-	=37-
!	!	!	!	!	!	!	!	!	!	!	!	!	!	!	!	!	!	!	!	!	!	!	!	!	!	!	!	!	!	!LO:TX:t=P:problem=kreska pseudotaktowa	!	!	!	!	!	!	!	!	!	!	!	!	!	!	!LO:TX:t=P:problem=kreska pseudotaktowa	!	!	!	!	!
!LO:TX:t=P:problem=kreska pseudotaktowa	!	!LO:TX:t=P:problem=kreska pseudotaktowa	!LO:TX:t=P:problem=kreska pseudotaktowa	!LO:TX:t=P:problem=kreska pseudotaktowa	!LO:TX:t=P:problem=kreska pseudotaktowa	!LO:TX:t=P:problem=kreska pseudotaktowa	!LO:TX:t=P:problem=kreska pseudotaktowa	!	!LO:TX:t=P:problem=kreska pseudotaktowa	!	!	!	!	!	!	!	!	!LO:TX:t=P:problem=kreska pseudotaktowa	!	!	!LO:TX:t=P:problem=kreska pseudotaktowa	!	!	!LO:TX:t=P:problem=kreska pseudotaktowa	!	!	!LO:TX:t=P:problem=kreska pseudotaktowa	!	!	!	!	!	!LO:TX:t=P:problem=kreska pseudotaktowa	!	!	!LO:TX:t=P:problem=kreska pseudotaktowa	!	!LO:TX:t=P:problem=kreska pseudotaktowa	!	!	!LO:TX:t=P:problem=kreska pseudotaktowa	!	!	!LO:TX:t=P:problem=kreska pseudotaktowa	!	!LO:TX:t=P:problem=kreska pseudotaktowa	!LO:TX:t=P:problem=kreska pseudotaktowa	!LO:TX:t=P:problem=kreska pseudotaktowa	!	!LO:TX:t=P:problem=kreska pseudotaktowa
1.C	#	1.C	1.C	1.G	1.c	1.eny	1.cc	1.eeny	1.C	-ſon	.	1.G	.	.	1.c	-ſon	.	1.eny	.	.	1.cc	-son	.	1.cc	.	.	1.C	-ſon	.	1.G	-ſon	.	1.c	-ſon	.	1.eny	-ſon	1.cc	-ſon	.	1.cc	-ſon	.	1.C	1.G	1.c	1.eny	1.cc	1.eeny	1.C
*	*	*	*	*	*	*	*	*custos:ee	*	*Xij	*	*	*	*	*	*Xij	*	*	*	*	*	*Xij	*	*	*	*	*	*Xij	*	*custos:G	*Xij	*	*	*	*	*	*Xij	*	*	*	*	*Xij	*	*	*custos:G	*	*	*	*	*
!	!	!	!	!	!	!	!LO:LB:g=original	!LO:LB:g=original	!	!	!	!LO:LB:g=original	!	!	![[Chri-	!	!	!	!	!	!	!	!	!LO:LB:g=original	!	!	!	!	!	!LO:LB:g=original	!	!	!	!	!	!	!	!	!	!	!	!	!	!	!LO:LB:g=original	!LO:LB:g=original	!	!	!	!
=38-	=38-	=38-	=38-	=38-	=38-	=38-	=38-	=38-	=38-	=38-	=38-	=38-	=38-	=38-	=38-	=38-	=38-	=38-	=38-	=38-	=38-	=38-	=38-	=38-	=38-	=38-	=38-	=38-	=38-	=38-	=38-	=38-	=38-	=38-	=38-	=38-	=38-	=38-	=38-	=38-	=38-	=38-	=38-	=38-	=38-	=38-	=38-	=38-	=38-	=38-
1C	7 5	1C	1C	2G/	2c\	2e\	2g/	2ee\	2C/	Chri-	[[Kÿ-	2G/	Kÿ-	Chri-	2c\	Kÿ-	Chri-	2e\	Kÿ-	Chri-	2g/	Chri-	[[Kÿ-	2g/	Kÿ-	Chri-	2C/	[[Kÿ-	Chri-	2G/	Chri-	.	2c\	Kÿ-	Chri-	2e\	Kÿ-	2g/	Chri-	.	2g/	Chri-	[[Kÿ-	1C	2G/	2c\	2e\	2g/	2ee\	1C
.	6	.	.	2E/	2c\	2e\	2a/	2ee\	2C/	-ste	-ri-	2E/	-ri-	-ste	2c\	-ri-	-ste	2e\	-ri-	-ste	2a\	-ste	-ri-	2a\	-ri-	-ste	2C/	-ri-	-ste	2E/	-ste	.	2c\	-ri-	-ste	2e\	-ri-	2a\	-ste	.	2a\	-ste	-ri-	.	2E/	2c\	2e\	2a/	2ee\	.
*	*	*	*	*	*	*	*	*	*	*	*	*	*	*ij	*	*	*	*	*	*	*	*	*	*	*	*	*	*	*	*	*	*	*	*	*	*	*	*	*	*	*	*	*	*	*	*	*	*	*	*
!	!	!LO:TX:t=P:problem=kreska pseudotaktowa	!LO:TX:t=P:problem=kreska pseudotaktowa	!	!LO:TX:t=P:problem=kreska pseudotaktowa	!LO:TX:t=P:problem=kreska pseudotaktowa	!LO:TX:t=P:problem=kreska pseudotaktowa	!LO:TX:t=P:problem=kreska pseudotaktowa	!LO:TX:t=P:problem=kreska pseudotaktowa	!	!	!	!	!	!LO:TX:t=P:problem=kreska pseudotaktowa	!	!	!LO:TX:t=P:problem=kreska pseudotaktowa	!	!	!LO:TX:t=P:problem=kreska pseudotaktowa	!	!	!LO:TX:t=P:problem=kreska pseudotaktowa	!	!	!LO:TX:t=P:problem=kreska pseudotaktowa	!	!	!	!	!	!LO:TX:t=P:problem=kreska pseudotaktowa	!	!	!LO:TX:t=P:problem=kreska pseudotaktowa	!	!LO:TX:t=P:problem=kreska pseudotaktowa	!	!	!LO:TX:t=P:problem=kreska pseudotaktowa	!	!	!	!	!LO:TX:t=P:problem=kreska pseudotaktowa	!LO:TX:t=P:problem=kreska pseudotaktowa	!LO:TX:t=P:problem=kreska pseudotaktowa	!LO:TX:t=P:problem=kreska pseudotaktowa	!LO:TX:t=P:problem=kreska pseudotaktowa
2BB-/	6	2BB-/	2BB-/	4F/	2d\	2d\	2b-/	2dd\	2BB-/	.	-e]]	4F/	-e	Chri-	2d\	-e	.	2d\	-e	.	2b-\	e-	-e]]	2b-\	-e	.	2BB-/	-e]]	.	4F/	e-	.	2d\	-e	.	2d\	-e	2b-\	e-	.	2b-\	e-	-e]]	2BB-/	4F/	2d\	2d\	2b-/	2dd\	2BB-/
!	!	!	!	!LO:TX:t=P:problem=kreska pseudotaktowa	!	!	!	!	!	!	!	!LO:TX:t=P:problem=kreska pseudotaktowa	!	!	!	!	!	!	!	!	!	!	!	!	!	!	!	!	!	!LO:TX:t=P:problem=kreska pseudotaktowa	!	!	!	!	!	!	!	!	!	!	!	!	!	!	!LO:TX:t=P:problem=kreska pseudotaktowa	!	!	!	!	!
.	.	.	.	4D/	.	.	.	.	.	.	.	4D/	.	.	.	.	.	.	.	.	.	.	.	.	.	.	.	.	.	4D/	.	.	.	.	.	.	.	.	.	.	.	.	.	.	4D/	.	.	.	.	.
!	!	!LO:LB:g=original	!	!	!	!	!	!	!	!	!	!	!	!	!	!	!	!	!	!	!	!	!	!	!	!	!	!	!	!	!	!	!	!	!	!	!	!	!	!	!	!	!	!	!	!	!	!	!	!
=39-	=39-	=39-	=39-	=39-	=39-	=39-	=39-	=39-	=39-	=39-	=39-	=39-	=39-	=39-	=39-	=39-	=39-	=39-	=39-	=39-	=39-	=39-	=39-	=39-	=39-	=39-	=39-	=39-	=39-	=39-	=39-	=39-	=39-	=39-	=39-	=39-	=39-	=39-	=39-	=39-	=39-	=39-	=39-	=39-	=39-	=39-	=39-	=39-	=39-	=39-
1AA	.	1AA	1AA	1A	1c	4e\	1cc	4ee\	1AA	.	.	1A	e-	-ste	1c	.	.	4e\	e-	.	1cc	.	.	1cc	e-	.	1AA	e-	.	1A	.	.	1c	.	.	4e\	e-	1cc	-lei-	.	1cc	.	.	1AA	1A	1c	4e\	1cc	4ee\	1AA
*	*	*	*	*	*	*	*	*	*	*	*	*	*	*Xij	*	*	*	*	*	*	*	*	*	*	*	*	*	*	*	*	*	*	*	*	*	*	*	*	*	*	*	*	*	*	*	*	*	*	*	*
.	.	.	.	.	.	4d\	.	4dd\	.	.	.	.	.	.	.	.	.	4d\	.	.	.	.	.	.	.	.	.	.	.	.	.	.	.	.	.	4d\	.	.	.	.	.	.	.	.	.	.	4d\	.	4dd\	.
.	.	.	.	.	.	4e\	.	4ee\	.	.	.	.	.	.	.	.	.	4e\	.	.	.	.	.	.	.	.	.	.	.	.	.	.	.	.	.	4e\	.	.	.	.	.	.	.	.	.	.	4e\	.	4ee\	.
.	.	.	.	.	.	4f\	.	4ff\	.	.	.	.	.	.	.	.	.	4f\	.	.	.	.	.	.	.	.	.	.	.	.	.	.	.	.	.	4f\	.	.	.	.	.	.	.	.	.	.	4f\	.	4ff\	.
*	*	*	*	*	*	*2\left	*	*	*	*	*	*	*	*	*	*	*	*	*	*	*	*	*	*	*	*	*	*	*	*	*	*	*	*	*	*	*	*	*	*	*	*	*	*	*	*	*	*	*	*
!LO:TX:t=P:problem=kreska pseudotaktowa	!	!LO:TX:t=P:problem=kreska pseudotaktowa	!LO:TX:t=P:problem=kreska pseudotaktowa	!LO:TX:t=P:problem=kreska pseudotaktowa	!	!LO:TX:t=P:problem=kreska pseudotaktowa	!	!LO:TX:t=P:problem=kreska pseudotaktowa	!	!	!	!LO:TX:t=P:problem=kreska pseudotaktowa	!	!	!LO:TX:t=P:problem=kreska pseudotaktowa	!	!	!LO:TX:t=P:problem=kreska pseudotaktowa	!	!	!	!	!	!	!	!	!	!	!	!LO:TX:t=P:problem=kreska pseudotaktowa	!	!	!	!	!	!LO:TX:t=P:problem=kreska pseudotaktowa	!	!	!	!	!LO:TX:t=P:problem=kreska pseudotaktowa	!	!	!LO:TX:t=P:problem=kreska pseudotaktowa	!LO:TX:t=P:problem=kreska pseudotaktowa	!	!LO:TX:t=P:problem=kreska pseudotaktowa	!LO:TX:t=P:problem=kreska pseudotaktowa	!LO:TX:t=P:problem=kreska pseudotaktowa	!LO:TX:t=P:problem=kreska pseudotaktowa
2GG/	-	2GG/	2GG/	2B-\	2d\	2g\	2b-/	2gg\	2GG/	e-	.	2B-\	.	.	2d\	e-	.	2g\	.	.	2b-\	.	.	2b-\	.	.	2GG/	-lei-	.	2B-\	.	.	2d\	e-	.	2g\	.	2b-\	-ſon	.	2b-\	.	.	2GG/	2B-\	2d\	2g\	2b-/	2gg\	2GG/
!	!	!	!	!	!	!	!	!	!	!	!	!	!	!	!	!	!	!	!	!	!	!	!	!	!	!	!	!	!	!	!	!	!	!	!	!	!	!	!	!	!LO:LB:g=original	!	!	!	!	!	!	!	!	!
=40-	=40-	=40-	=40-	=40-	=40-	=40-	=40-	=40-	=40-	=40-	=40-	=40-	=40-	=40-	=40-	=40-	=40-	=40-	=40-	=40-	=40-	=40-	=40-	=40-	=40-	=40-	=40-	=40-	=40-	=40-	=40-	=40-	=40-	=40-	=40-	=40-	=40-	=40-	=40-	=40-	=40-	=40-	=40-	=40-	=40-	=40-	=40-	=40-	=40-	=40-
*col	*	*col	*col	*col	*col	*	*	*	*	*	*	*	*	*	*	*	*	*	*	*	*	*	*	*	*	*	*col	*	*	*col	*	*	*	*	*	*	*	*	*	*	*	*	*	*col	*col	*col	*	*	*	*col
2C/	6 -5	2C/	2C/	2c\	2e-X\	1g	1a	1gg	2C/	-lei-	.	2c\	.	.	2e-X\	-lei-	.	1g	.	.	1a	-lei-	.	1a	-lei-	.	2C/	.	.	2c\	-lei-	.	2e-X\	-lei-	.	1g	-lei-	1a	e-	.	1a	-lei-	.	2C/	2c\	2e-X\	1g	1a	1gg	2C/
!	!	!LO:TX:t=P:problem=kreska pseudotaktowa	!LO:TX:t=P:problem=kreska pseudotaktowa	!	!LO:TX:t=P:problem=kreska pseudotaktowa	!	!	!	!LO:TX:t=P:problem=kreska pseudotaktowa	!	!	!	!	!	!	!	!	!	!	!	!	!	!	!	!	!	!LO:TX:t=P:problem=kreska pseudotaktowa	!	!	!	!	!	!LO:TX:t=P:problem=kreska pseudotaktowa	!	!	!	!	!	!	!	!	!	!	!	!	!LO:TX:t=P:problem=kreska pseudotaktowa	!	!	!	!LO:TX:t=P:problem=kreska pseudotaktowa
1D	4	1D	1D	1A	1d	.	.	.	1D	.	.	1A	-lei-	.	1d	.	.	.	.	.	.	.	.	.	.	.	1D	.	.	1A	.	.	1d	.	.	.	.	.	.	.	.	.	.	1D	1A	1d	.	.	.	1D
*	*	*	*	*	*	*2\right	*	*	*	*	*	*	*	*	*	*	*	*	*	*	*	*	*	*	*	*	*	*	*	*	*	*	*	*	*	*	*	*	*	*	*	*	*	*	*	*	*	*	*	*
!	!	!	!	!	!	!	!LO:TX:t=P:problem=kreska pseudotaktowa	!	!	!	!	!	!	!	!	!	!	!	!	!	!LO:TX:t=P:problem=kreska pseudotaktowa	!	!	!LO:TX:t=P:problem=kreska pseudotaktowa	!	!	!	!	!	!	!	!	!	!	!	!	!	!LO:TX:t=P:problem=kreska pseudotaktowa	!	!	!	!	!	!	!	!	!	!LO:TX:t=P:problem=kreska pseudotaktowa	!	!
.	3	.	.	.	.	2f#X\	2a/	2ff#X\	.	.	.	.	.	.	.	.	.	2f#X\	-lei-	.	2a\	.	.	2a\	.	.	.	.	.	.	.	.	.	.	.	2f#X\	.	2a\	-lei-	.	2a\	.	.	.	.	.	2f#X\	2a/	2ff#X\	.
*Xcol	*	*Xcol	*Xcol	*Xcol	*Xcol	*	*	*	*	*	*	*	*	*	*	*	*	*	*	*	*	*	*	*	*	*	*Xcol	*	*	*Xcol	*	*	*	*	*	*	*	*	*	*	*	*	*	*Xcol	*Xcol	*Xcol	*	*	*	*Xcol
=41-	=41-	=41-	=41-	=41-	=41-	=41-	=41-	=41-	=41-	=41-	=41-	=41-	=41-	=41-	=41-	=41-	=41-	=41-	=41-	=41-	=41-	=41-	=41-	=41-	=41-	=41-	=41-	=41-	=41-	=41-	=41-	=41-	=41-	=41-	=41-	=41-	=41-	=41-	=41-	=41-	=41-	=41-	=41-	=41-	=41-	=41-	=41-	=41-	=41-	=41-
!LO:TX:t=P:problem=kreska pseudotaktowa	!	!LO:TX:t=P:problem=kreska pseudotaktowa	!LO:TX:t=P:problem=kreska pseudotaktowa	!LO:TX:t=P:problem=kreska pseudotaktowa	!LO:TX:t=P:problem=kreska pseudotaktowa	!LO:TX:t=P:problem=kreska pseudotaktowa	!LO:TX:t=P:problem=kreska pseudotaktowa	!LO:TX:t=P:problem=kreska pseudotaktowa	!LO:TX:t=P:problem=kreska pseudotaktowa	!	!	!LO:TX:t=P:problem=kreska pseudotaktowa	!	!	!LO:TX:t=P:problem=kreska pseudotaktowa	!	!	!	!	!	!LO:TX:t=P:problem=kreska pseudotaktowa	!	!	!	!	!	!LO:TX:t=P:problem=kreska pseudotaktowa	!	!	!LO:TX:t=P:problem=kreska pseudotaktowa	!	!	!LO:TX:t=P:problem=kreska pseudotaktowa	!	!	!LO:TX:t=P:problem=kreska pseudotaktowa	!	!LO:TX:t=P:problem=kreska pseudotaktowa	!	!	!LO:TX:t=P:problem=kreska pseudotaktowa	!	!	!LO:TX:t=P:problem=kreska pseudotaktowa	!LO:TX:t=P:problem=kreska pseudotaktowa	!LO:TX:t=P:problem=kreska pseudotaktowa	!LO:TX:t=P:problem=kreska pseudotaktowa	!LO:TX:t=P:problem=kreska pseudotaktowa	!LO:TX:t=P:problem=kreska pseudotaktowa	!LO:TX:t=P:problem=kreska pseudotaktowa
1.GG	.	1.GG	1.GG	1.B-	1.d	1.g	1.g	1.gg	1.GG	-ſon	.	1.B-	-ſon	.	1.d	-ſon.	.	1.g	-ſon.	.	1.g	-ſon	.	1.g	-ſon	.	1.GG	-ſon	.	1.B-	-ſon.	.	1.d	-ſon,	.	1.g	-ſon,	1.g	-ſon	.	1.g	-ſon,	.	1.GG	1.B-	1.d	1.g	1g	1.gg	1.GG
*	*	*	*	*	*	*	*	*	*	*	*	*	*	*	*	*	*	*	*	*	*	*	*	*	*	*	*	*	*	*	*	*	*	*	*	*	*	*	*Xij	*	*	*	*	*	*	*	*	*	*	*
.	.	.	.	.	.	.	.	.	.	.	.	.	.	.	.	.	.	.	.	.	.	.	.	.	.	.	.	.	.	.	.	.	.	.	.	.	.	.	.	.	.	.	.	.	.	.	.	2r	.	.
=42-	=42-	=42-	=42-	=42-	=42-	=42-	=42-	=42-	=42-	=42-	=42-	=42-	=42-	=42-	=42-	=42-	=42-	=42-	=42-	=42-	=42-	=42-	=42-	=42-	=42-	=42-	=42-	=42-	=42-	=42-	=42-	=42-	=42-	=42-	=42-	=42-	=42-	=42-	=42-	=42-	=42-	=42-	=42-	=42-	=42-	=42-	=42-	=42-	=42-	=42-
1F	.	1F	1F	2A/	2c\	2fny\	2cc\	2ffny\	2F\	Chri-	.	2A/	Chri-	.	2c\	Chri-	.	2fny\	Chri-	.	2cc\	Chri-	.	2cc\	Chri-	.	2F\	Chri-	.	2A/	Chri-	.	2c\	Chri-	.	2fny\	Chri-	2cc\	Chri-	.	2cc\	Chri-	.	1F	2A/	2c\	2fny\	2cc\	2ffny\	1F
.	.	.	.	2A/	2A/	2f\	2cc\	2ff\	2F\	-ste	.	2A/	-ste	.	2A/	-ste	.	2f\	-ste	.	2cc\	-ste	.	2cc\	-ste	.	2F\	-ste	.	2A/	-ste	.	2A/	-ste	.	2f\	-ste	2cc\	-ste	.	2cc\	-ste	.	.	2A/	2A/	2f\	2cc\	2ff\	.
!LO:TX:t=P:problem=kreska pseudotaktowa	!	!LO:TX:t=P:problem=kreska pseudotaktowa	!LO:TX:t=P:problem=kreska pseudotaktowa	!	!LO:TX:t=P:problem=kreska pseudotaktowa	!LO:TX:t=P:problem=kreska pseudotaktowa	!LO:TX:t=P:problem=kreska pseudotaktowa	!LO:TX:t=P:problem=kreska pseudotaktowa	!LO:TX:t=P:problem=kreska pseudotaktowa	!	!	!LO:TX:t=P:problem=kreska pseudotaktowa	!	!	!	!	!	!LO:TX:t=P:problem=kreska pseudotaktowa	!	!	!LO:TX:t=P:problem=kreska pseudotaktowa	!	!	!LO:TX:t=P:problem=kreska pseudotaktowa	!	!	!LO:TX:t=P:problem=kreska pseudotaktowa	!	!	!LO:TX:t=P:problem=kreska pseudotaktowa	!	!	!LO:TX:t=P:problem=kreska pseudotaktowa	!	!	!LO:TX:t=P:problem=kreska pseudotaktowa	!	!LO:TX:t=P:problem=kreska pseudotaktowa	!	!	!LO:TX:t=P:problem=kreska pseudotaktowa	!	!	!	!	!LO:TX:t=P:problem=kreska pseudotaktowa	!LO:TX:t=P:problem=kreska pseudotaktowa	!LO:TX:t=P:problem=kreska pseudotaktowa	!LO:TX:t=P:problem=kreska pseudotaktowa	!LO:TX:t=P:problem=kreska pseudotaktowa
2D/	6	2D/	2D/	2F/	2B-y\	2f\	2dd\	2ff\	2D/	.	.	2F/	.	.	2B-\	.	.	2f\	.	.	2dd\	.	.	2dd\	e-	.	2D/	e-	.	2F/	e-	.	2B-y\	.	.	2f\	e-	2dd\	e-	.	2dd\	e-	.	2D/	2F/	2B-y\	2f\	2dd\	2ff\	2D/
=43-	=43-	=43-	=43-	=43-	=43-	=43-	=43-	=43-	=43-	=43-	=43-	=43-	=43-	=43-	=43-	=43-	=43-	=43-	=43-	=43-	=43-	=43-	=43-	=43-	=43-	=43-	=43-	=43-	=43-	=43-	=43-	=43-	=43-	=43-	=43-	=43-	=43-	=43-	=43-	=43-	=43-	=43-	=43-	=43-	=43-	=43-	=43-	=43-	=43-	=43-
!	!	!	!	!	!	!	!	!	!	!	!	!	!	!	!LO:TX:t=P:problem=kreska pseudotaktowa	!	!	!	!	!	!	!	!	!	!	!	!	!	!	!	!	!	!LO:TX:t=P:problem=kreska pseudotaktowa	!	!	!	!	!	!	!	!	!	!	!	!	!	!	!	!	!
2.C/	.	2.C/	2.C/	1G	1c	2.e-X\	1ee-X	2.ee-X\	2.C/	e-	.	1G	.	.	1.c	e-	.	2.e-X\	e-	.	1ee-X	e-	.	1ee-X	.	.	2.C/	.	.	1G	.	.	1.c	e-	.	2.e-X\	-lei-	1ee-X	.	.	1ee-X	.	.	2.C/	1G	1c	2.e-X\	1ee-X	2.ee-X\	2.C/
4D/	6	4D/	4D/	.	.	4f\	.	4ff\	4D/	-lei-	.	.	.	.	.	.	.	4f\	.	.	.	.	.	.	.	.	4D\	.	.	.	.	.	.	.	.	4f\	.	.	.	.	.	.	.	4D/	.	.	4f\	.	4ff\	4D/
!	!	!	!	!	!	!	!	!	!LO:TX:a:t=P:problem:♭ above	!	!	!	!	!	!	!	!	!	!	!	!	!	!	!	!	!	!	!	!	!	!	!	!	!	!	!	!	!	!	!	!	!	!	!	!	!	!	!	!	!
!LO:TX:t=P:problem=kreska pseudotaktowa	!	!LO:TX:t=P:problem=kreska pseudotaktowa	!LO:TX:t=P:problem=kreska pseudotaktowa	!LO:TX:t=P:problem=kreska pseudotaktowa	!	!LO:TX:t=P:problem=kreska pseudotaktowa	!LO:TX:t=P:problem=kreska pseudotaktowa	!LO:TX:t=P:problem=kreska pseudotaktowa	!LO:TX:t=P:problem=kreska pseudotaktowa	!	!	!	!	!	!	!	!	!LO:TX:t=P:problem=kreska pseudotaktowa	!	!	!LO:TX:t=P:problem=kreska pseudotaktowa	!	!	!	!	!	!LO:TX:t=P:problem=kreska pseudotaktowa	!	!	!LO:TX:t=P:problem=kreska pseudotaktowa	!	!	!	!	!	!LO:TX:t=P:problem=kreska pseudotaktowa	!	!LO:TX:t=P:problem=kreska pseudotaktowa	!	!	!LO:TX:t=P:problem=kreska pseudotaktowa	!	!	!LO:TX:t=P:problem=kreska pseudotaktowa	!LO:TX:t=P:problem=kreska pseudotaktowa	!	!LO:TX:t=P:problem=kreska pseudotaktowa	!LO:TX:t=P:problem=kreska pseudotaktowa	!LO:TX:t=P:problem=kreska pseudotaktowa	!LO:TX:t=P:problem=kreska pseudotaktowa
2E-X\	6	2E-X/	2E-X\	2G/	2c\	2g\	2ee-X\	2gg\	2E-X\	.	.	2G/	e-	.	.	.	.	2g\	-lei-	.	2ee-\	.	.	2ee-\	.	.	2E-X\	.	.	2G/	.	.	.	.	.	2g\	.	2ee-X\	.	.	2ee-\	.	.	2E-X\	2G/	2c\	2g\	2ee-X\	2gg\	2E-X\
=44-	=44-	=44-	=44-	=44-	=44-	=44-	=44-	=44-	=44-	=44-	=44-	=44-	=44-	=44-	=44-	=44-	=44-	=44-	=44-	=44-	=44-	=44-	=44-	=44-	=44-	=44-	=44-	=44-	=44-	=44-	=44-	=44-	=44-	=44-	=44-	=44-	=44-	=44-	=44-	=44-	=44-	=44-	=44-	=44-	=44-	=44-	=44-	=44-	=44-	=44-
*col	*	*col	*col	*col	*	*col	*	*col	*	*	*	*	*	*	*	*	*	*	*	*	*	*	*	*	*	*	*col	*	*	*col	*	*	*	*	*	*	*	*	*	*	*	*	*	*col	*col	*	*col	*	*col	*col
2F\	6 5	2F\	2F\	2A/	1c	2f\	1dd	2ff\	2F\	.	.	2A/	.	.	1c	-lei-	.	2f\	.	.	1dd	-lei-	.	1dd	-lei-	.	2F\	-lei-	.	2A/	-lei-	.	1c	-lei-	.	2f\	.	1dd	-lei-	.	1dd	-lei-	.	2F\	2A/	1c	2f\	1dd	2ff\	2F\
!	!	!LO:TX:t=P:problem=kreska pseudotaktowa	!	!	!	!	!	!	!	!	!	!LO:TX:t=P:problem=kreska pseudotaktowa	!	!	!	!	!	!	!	!	!	!	!	!	!	!	!	!	!	!	!	!	!	!	!	!	!	!	!	!	!	!	!	!	!	!	!	!	!	!LO:TX:t=P:problem=kreska pseudotaktowa
1G	4	1G	1G	1G	.	1d	.	1dd	1G	.	.	1G	-lei-	.	.	.	.	1d	-ſon	.	.	.	.	.	.	.	1G	.	.	1G	.	.	.	.	.	1d	.	.	.	.	.	.	.	1G	1G	.	1d	.	1dd	1G
!	!	!	!	!	!LO:N:acc=#	!	!	!	!	!	!	!	!	!	!LO:TX:t=P:problem=kreska pseudotaktowa	!	!	!	!	!	!	!	!	!	!	!	!	!	!	!	!	!	!	!	!	!	!	!	!	!	!	!	!	!	!	!LO:TX:t=P:problem=kreska pseudotaktowa	!	!	!	!
!	!	!	!	!	!LO:TX:t=P:problem=kreska pseudotaktowa	!	!	!	!	!	!	!	!	!	!LO:N:acc=#	!	!	!	!	!	!	!	!	!LO:TX:t=P:problem=kreska pseudotaktowa	!	!	!	!	!	!	!	!	!LO:N:acc=#	!	!	!	!	!	!	!	!	!	!	!	!	!LO:N:acc=#	!	!	!	!
.	3	.	.	.	2Bn\	.	2dd\	.	.	.	.	.	.	.	2Bn\	.	.	.	.	.	2dd\	.	.	2dd\	.	.	.	.	.	.	.	.	2Bn\	.	.	.	.	2dd\	.	.	2dd\	.	.	.	.	2Bn\	.	2dd\	.	.
*Xcol	*	*Xcol	*Xcol	*Xcol	*	*Xcol	*	*Xcol	*	*	*	*	*	*	*	*	*	*	*	*	*	*	*	*	*	*	*Xcol	*	*	*Xcol	*	*	*	*	*	*	*	*	*	*	*	*	*	*Xcol	*Xcol	*	*Xcol	*	*Xcol	*Xcol
*	*	*	*	*	*custos:c	*custos:e	*	*	*	*	*	*	*	*	*	*	*	*	*	*	*	*	*	*	*	*	*	*	*	*	*	*	*	*	*	*	*	*	*	*	*	*	*	*	*	*	*	*	*	*
!	!	!	!	!	!LO:LB:g=original	!LO:LB:g=original	!	!	!	!	!	!	!	!	!	!	!	!	!	!	!	!	!	!	!	!	!	!	!	!	!	!	!	!	!	!	!	!	!	!	!	!	!	!	!	!	!	!	!	!
=45-	=45-	=45-	=45-	=45-	=45-	=45-	=45-	=45-	=45-	=45-	=45-	=45-	=45-	=45-	=45-	=45-	=45-	=45-	=45-	=45-	=45-	=45-	=45-	=45-	=45-	=45-	=45-	=45-	=45-	=45-	=45-	=45-	=45-	=45-	=45-	=45-	=45-	=45-	=45-	=45-	=45-	=45-	=45-	=45-	=45-	=45-	=45-	=45-	=45-	=45-
1.C;;	.	1.C;	1.C	1.G;	1.c;	1.eny;	1.cc;	1.eeny;	1.C;	-ſon	.	1.G;	-ſon	.	1.c;	-ſon,	.	1.eny	.	.	1.cc;	-ſon	.	1.cc;;	-ſon	.	1.C;	-ſon	.	1.G;	-ſon	.	1.c;	-ſon,	.	1.eny	-ſon.	1.cc;	-ſon,	.	1.cc;	-ſon	.	1.C	1.G	1.c	1.eny	1.cc;	1.eeny;	1.C;
*	*	*	*	*	*	*	*	*	*	*	*	*	*	*	*	*	*	*	*	*	*	*	*	*	*	*	*	*	*	*	*	*	*	*	*	*	*	*	*	*	*	*	*	*	*	*	*	*	*custos:ee	*
!	!	!	!	!	!	!	!	!	!	!	!	!	!	!	!	!	!	!	!	!	!	!	!	!	!	!	!	!	!	!	!	!	!	!	!	!	!	!	!	!	!	!	!	!	!	!	!	!	!LO:LB:g=original	!
=46||	=46||	=46||	=46||	=46||	=46||	=46||	=46||	=46||	=46||	=46||	=46||	=46||	=46||	=46||	=46||	=46||	=46||	=46||	=46||	=46||	=46||	=46||	=46||	=46||	=46||	=46||	=46||	=46||	=46||	=46||	=46||	=46||	=46||	=46||	=46||	=46||	=46||	=46||	=46||	=46||	=46||	=46||	=46||	=46||	=46||	=46||	=46||	=46||	=46||	=46||
!LO:TX:b:i:t=Kyrie	!	!LO:TX:b:i:t=Kyrie	!LO:TX:b:i:t=Kyrie	!LO:TX:b:i:t=Kyrie	!LO:TX:b:i:t=Kyrie.	!LO:TX:b:i:t=Kyrie	!LO:TX:b:i:t=Kyrie.	!LO:TX:b:i:t=Kyrie	!	!	!	!	!	!	!	!	!	!	!	!	!	!	!	!	!	!	!	!	!	!	!	!	!	!	!	!	!	!	!	!	!	!	!	!LO:TX:b:i:t=Kyrie.	!LO:TX:b:i:t=Kyrie	!	!LO:TX:b:i:t=Kyrie	!LO:TX:b:i:t=Kyrie	!LO:TX:b:i:t=Kyrie	!LO:TX:b:i:t=Kyrie
1C	5	1C	1C	2G/	2c\	2e\	2g/	2ee\	2C/	Kÿ-	Chri-	2G/	Kÿ-	Chri-	2c\	Kÿ-	Chri-	2e\	Kÿ-	Chri-	2g/	Kÿ-	Chri-	2g/	Kÿ-	Chri-	2C/	Kÿ-	[[Chri-	2G/	Kÿ-	.	2c\	Kÿ-	Chri-	2e\	Kÿ-	2g/	Kÿ-	[[Chri-	2g/	Kÿ-	Chri-	1C	2G/	2c\	2e\	2g/	2ee\	1C
.	6	.	.	2E/	2c\	2e\	2a/	2ee\	2C/	-ri-	-ste	2D/	-ri-	-ste	2c\	-ri-	-ste	2e\	-ri-	-ste	2a\	-ri-	-ste	2a\	-ri-	-ste	2C/	-ri-	-ste]]	2E/	-ri-	.	2c\	-ri-	-ste	2e\	-ri-	2a\	-ri-	-ste]]	2a\	-ri-	-ste	.	2E/	2c\	2e\	2a/	2ee\	.
!	!	!LO:N:acc=#	!	!	!	!	!	!	!	!	!	!	!	!	!	!	!	!	!	!	!	!	!	!	!	!	!	!	!	!	!	!	!	!	!	!	!	!	!	!	!	!	!	!	!	!	!	!	!	!LO:N:acc=#
!	!	!LO:TX:t=P:problem=kreska pseudotaktowa	!	!	!LO:TX:t=P:problem=kreska pseudotaktowa	!LO:TX:t=P:problem=kreska pseudotaktowa	!LO:TX:t=P:problem=kreska pseudotaktowa	!LO:TX:t=P:problem=kreska pseudotaktowa	!LO:TX:t=P:problem=kreska pseudotaktowa	!	!	!	!	!	!LO:TX:t=P:problem=kreska pseudotaktowa	!	!	!LO:TX:t=P:problem=kreska pseudotaktowa	!	!	!LO:TX:t=P:problem=kreska pseudotaktowa	!	!	!LO:TX:t=P:problem=kreska pseudotaktowa	!	!	!LO:TX:t=P:problem=kreska pseudotaktowa	!	!	!	!	!	!LO:TX:t=P:problem=kreska pseudotaktowa	!	!	!LO:TX:t=P:problem=kreska pseudotaktowa	!	!LO:TX:t=P:problem=kreska pseudotaktowa	!	!	!LO:TX:t=P:problem=kreska pseudotaktowa	!	!	!	!	!LO:TX:t=P:problem=kreska pseudotaktowa	!LO:TX:t=P:problem=kreska pseudotaktowa	!LO:TX:t=P:problem=kreska pseudotaktowa	!LO:TX:t=P:problem=kreska pseudotaktowa	!LO:TX:t=P:problem=kreska pseudotaktowa
2BB-/	6	2BBn/	2BB-/	4F/	2d\	2d\	2b-/	2dd\	2BB-/	-e	.	4F/	-e	.	2d\	-e	.	2d\	-e	.	2b-\	-e	.	2b-\	-e	.	2BB-/	-e	.	4G/	-e	.	2d\	-e	.	2d\	-e	2b-\	-e	.	2b-\	-e	.	2BB-/	4F/	2d\	2d\	2b-/	2dd\	2BBn/
!	!	!	!	!LO:TX:t=P:problem=kreska pseudotaktowa	!	!	!	!	!	!	!	!LO:TX:t=P:problem=kreska pseudotaktowa	!	!	!	!	!	!	!	!	!	!	!	!	!	!	!	!	!	!LO:TX:t=P:problem=kreska pseudotaktowa	!	!	!	!	!	!	!	!	!	!	!	!	!	!	!LO:TX:t=P:problem=kreska pseudotaktowa	!	!	!	!	!
.	.	.	.	4D/	.	.	.	.	.	.	.	4D/	.	.	.	.	.	.	.	.	.	.	.	.	.	.	.	.	.	4D/	.	.	.	.	.	.	.	.	.	.	.	.	.	.	4D/	.	.	.	.	.
!LO:LB:g=original	!	!	!	!	!	!	!	!	!	!	!	!	!	!	!	!	!	!LO:LB:g=original	!	!	!	!	!	!	!	!	!	!	!	!	!	!	!	!	!	!	!	!	!	!	!	!	!	!	!	!	!	!	!	!
=47-	=47-	=47-	=47-	=47-	=47-	=47-	=47-	=47-	=47-	=47-	=47-	=47-	=47-	=47-	=47-	=47-	=47-	=47-	=47-	=47-	=47-	=47-	=47-	=47-	=47-	=47-	=47-	=47-	=47-	=47-	=47-	=47-	=47-	=47-	=47-	=47-	=47-	=47-	=47-	=47-	=47-	=47-	=47-	=47-	=47-	=47-	=47-	=47-	=47-	=47-
1AA	.	1AA	1AA	1A	1c	4e\	1cc	4ee\	1AA	.	.	1A	e-	.	1c	.	.	4e\	e-	.	1cc	e-	.	1cc	e-	.	1AA	e-	.	1A	.	.	1c	.	.	4e\	e-	1cc	e-	.	1cc	e-	.	1AA	1A	1c	4e\	1cc	4ee\	1AA
.	.	.	.	.	.	4d\	.	4dd\	.	.	.	.	.	.	.	.	.	4d\	.	.	.	.	.	.	.	.	.	.	.	.	.	.	.	.	.	4d\	.	.	.	.	.	.	.	.	.	.	4d\	.	4dd\	.
.	.	.	.	.	.	4e\	.	4ee\	.	.	.	.	.	.	.	.	.	4e\	.	.	.	.	.	.	.	.	.	.	.	.	.	.	.	.	.	4e\	.	.	.	.	.	.	.	.	.	.	4e\	.	4ee\	.
.	.	.	.	.	.	4f\	.	4ff\	.	.	.	.	.	.	.	.	.	4f\	.	.	.	.	.	.	.	.	.	.	.	.	.	.	.	.	.	4f\	.	.	.	.	.	.	.	.	.	.	4f\	.	4ff\	.
!LO:TX:t=P:problem=kreska pseudotaktowa	!	!LO:TX:t=P:problem=kreska pseudotaktowa	!LO:TX:t=P:problem=kreska pseudotaktowa	!	!	!LO:TX:t=P:problem=kreska pseudotaktowa	!	!LO:TX:t=P:problem=kreska pseudotaktowa	!	!	!	!	!	!	!LO:TX:t=P:problem=kreska pseudotaktowa	!	!	!LO:TX:t=P:problem=kreska pseudotaktowa	!	!	!	!	!	!	!	!	!	!	!	!LO:TX:t=P:problem=kreska pseudotaktowa	!	!	!	!	!	!LO:TX:t=P:problem=kreska pseudotaktowa	!	!	!	!	!LO:TX:t=P:problem=kreska pseudotaktowa	!	!	!LO:TX:t=P:problem=kreska pseudotaktowa	!	!	!LO:TX:t=P:problem=kreska pseudotaktowa	!	!LO:TX:t=P:problem=kreska pseudotaktowa	!LO:TX:t=P:problem=kreska pseudotaktowa
2GG/	-	2GG/	2GG/	2B-\	2d\	2g\	2b-/	2gg\	2GG/	e-	.	2B-\	-lei-	.	2d\	e-	.	2g\	.	.	2b-\	.	.	2b-\	.	.	2GG/	.	.	2B-\	e-	.	2d\	e-	.	2g\	.	2b-\	.	.	2b-\	.	.	2GG/	2B-\	2d\	2g\	2b-/	2gg\	2GG/
*	*	*	*custos:C	*	*	*	*	*	*	*	*	*	*	*	*	*	*	*	*	*	*	*	*	*	*	*	*	*	*	*	*	*	*	*	*	*	*	*	*	*	*	*	*	*	*	*	*	*	*	*
!	!	!	!LO:LB:g=original	!	!	!	!	!	!	!	!	!	!	!	!	!	!	!	!	!	!	!	!	!	!	!	!	!	!	!	!	!	!	!	!	!LO:LB:g=original	!	!	!	!	!	!	!	!	!	!	!	!	!	!
=48-	=48-	=48-	=48-	=48-	=48-	=48-	=48-	=48-	=48-	=48-	=48-	=48-	=48-	=48-	=48-	=48-	=48-	=48-	=48-	=48-	=48-	=48-	=48-	=48-	=48-	=48-	=48-	=48-	=48-	=48-	=48-	=48-	=48-	=48-	=48-	=48-	=48-	=48-	=48-	=48-	=48-	=48-	=48-	=48-	=48-	=48-	=48-	=48-	=48-	=48-
*	*	*	*col	*col	*col	*	*	*	*	*	*	*	*	*	*	*	*	*	*	*	*	*	*	*	*	*	*	*	*	*col	*	*	*	*	*	*	*	*	*	*	*	*	*	*col	*col	*col	*	*	*	*
2C/	6 5	2C/	2C/	2c\	2e-X\	1g	1a	1gg	2C/	-lei-	.	2c\	.	.	2e-X\	-lei-	.	1g	.	.	1a	-lei-	.	1a	-lei-	.	2C/	-lei-	.	2A\	-lei-	.	2e-X\	-lei-	.	1g	-lei-	1a	-lei-	.	1a	-lei-	.	2C/	2c\	2e-X\	1g	1a	1gg	2C/
*	*	*	*	*	*	*	*	*	*	*	*	*	*	*	*	*	*	*	*	*	*	*	*	*	*	*	*	*	*	*	*	*	*	*	*	*	*	*	*	*	*	*	*	*	*	*	*	*	*	*custos:D
!	!	!LO:TX:t=P:problem=kreska pseudotaktowa	!	!	!LO:TX:t=P:problem=kreska pseudotaktowa	!	!	!	!	!	!	!	!	!	!	!	!	!	!	!	!	!	!	!	!	!	!	!	!	!	!	!	!	!	!	!	!	!	!	!	!	!	!	!	!	!	!	!	!LO:LB:g=original	!
1D	4	1D	1D	1A	1d	.	.	.	1D	.	.	1A	.	.	1d	.	.	.	.	.	.	.	.	.	.	.	1D	.	.	1A	.	.	1d	.	.	.	.	.	.	.	.	.	.	1D	1A	1d	.	.	.	1D
!	!	!	!	!	!	!	!	!	!	!	!	!	!	!	!	!	!	!	!	!	!	!	!	!	!	!	!	!	!	!	!	!	!	!	!	!	!	!	!	!	!	!	!	!	!	!	!	!	!LO:TX:t=P:problem=kreska pseudotaktowa	!
.	# 3	.	.	.	.	2f#X\	2a/	2ff#X\	.	.	.	.	.	.	.	.	.	2f#X\	-lei-	.	2a\	.	.	2a\	.	.	.	.	.	.	.	.	.	.	.	2f#X\	.	2a\	.	.	2a\	.	.	.	.	.	2f#X\	2a/	2ff#X\	.
*	*	*	*	*custos:B	*	*	*	*	*	*	*	*	*	*	*	*	*	*	*	*	*	*	*	*	*	*	*	*	*	*	*	*	*	*	*	*	*	*	*	*	*	*	*	*	*	*	*	*	*	*
*	*	*	*Xcol	*Xcol	*Xcol	*	*	*	*	*	*	*	*	*	*	*	*	*	*	*	*	*	*	*	*	*	*	*	*	*	*	*	*	*	*	*	*	*	*	*	*	*	*	*Xcol	*Xcol	*Xcol	*	*custos:g	*	*
!	!	!	!	!LO:LB:g=original	!	!	!	!LO:LB:g=original	!LO:LB:g=original	!	!	!	!	!	!	!	!	!	!	!	!LO:LB:g=original	!	!	!	!	!	!LO:LB:g=original	!	!	!	!	!	!	!	!	!	!	!	!	!	!	!	!	!	!	!	!LO:LB:g=original	!LO:LB:g=original	!	!
=49-	=49-	=49-	=49-	=49-	=49-	=49-	=49-	=49-	=49-	=49-	=49-	=49-	=49-	=49-	=49-	=49-	=49-	=49-	=49-	=49-	=49-	=49-	=49-	=49-	=49-	=49-	=49-	=49-	=49-	=49-	=49-	=49-	=49-	=49-	=49-	=49-	=49-	=49-	=49-	=49-	=49-	=49-	=49-	=49-	=49-	=49-	=49-	=49-	=49-	=49-
*M2/2	*	*M2/2	*M2/2	*M2/2	*M2/2	*M2/2	*M2/2	*M2/2	*M2/2	*	*	*M2/2	*	*	*M2/2	*	*	*M2/2	*	*	*M2/2	*	*	*M2/2	*	*	*M2/2	*	*	*M2/2	*	*	*M2/2	*	*	*M2/2	*	*M2/2	*	*	*M2/2	*	*	*M2/2	*M2/2	*M2/2	*M2/2	*M2/2	*M2/2	*M2/2
*met(C)	*	*met(C|)	*met(C)	*met(C)	*met(C)	*met(C)	*met(C)	*met(C)	*met(C)	*	*	*met(C)	*	*	*met(C)	*	*	*met(C)	*	*	*met(C)	*	*	*met(C)	*	*	*met(C)	*	*	*met(C)	*	*	*met(C)	*	*	*met(C)	*	*met(C)	*	*	*met(C)	*	*	*met(C)	*met(C)	*met(C)	*met(C)	*met(C|)	*met(C)	*met(C|)
!	!	!	!	!LO:N:acc=#	!	!	!	!	!	!	!	!LO:N:acc=#	!	!	!	!	!	!	!	!	!	!	!	!	!	!	!	!	!	!LO:N:acc=#	!	!	!	!	!	!	!	!	!	!	!	!	!	!	!LO:N:acc=#	!	!	!	!	!
2GG/	#	2GG/	2GG/	2Bn\	2d\	2g\	2g/	2gg\	2GG/	-ſon	.	2Bn\	-ſon	.	2d\	-ſon	.	2g\	-ſon	.	2g/	-ſon	.	2g/	-ſon	.	2GG/	-ſon	.	2Bn\	-ſon	.	2d\	-ſon	.	2g\	-ſon	2g/	-ſon	.	2g/	-ſon.	.	2GG/	2Bn\	2d\	2g\	2g/	2gg\	2GG/
*	*	*	*	*	*	*	*	*	*	*	*	*	*	*	*custos:d	*	*	*	*	*	*	*	*	*	*	*	*	*	*	*	*	*	*	*	*	*	*	*	*	*	*	*	*	*	*	*	*	*	*	*
!	!	!	!	!	!	!	!	!	!	!	!	!LO:LB:g=original	!	!	!LO:LB:g=original	!	!	!	!	!	!	!	!	!	!	!	!	!	!	!	!	!	!LO:LB:g=original	!	!	!	!	!LO:LB:g=original	!	!	!	!	!	!	!	!	!	!	!	!
8r	.	8r	8r	8r	8r	8r	8r	8r	8r	.	.	8r	.	.	8r	.	.	8r	.	.	8r	.	.	8r	.	.	8r	.	.	8r	.	.	8r	.	.	8r	.	8r	.	.	8r	.	.	8r	8r	8r	8r	8r	8r	8r
8GG/L	.	8GG/L	8GG/L	8B-X\L	8d\L	8g\L	8dd\L	8gg\L	8G\	Kÿ-	Chri-	8B-X\	Kÿ-	Chri-	8d\	Kÿ-	Chri-	8g\	Kÿ-	Chri-	8b-\	Kÿ-	Chri-	8dd\	Kÿ-	Chri-	8G\	Kÿ-	[[Chri-	8B-X\	Kÿ-	.	8d\	Kÿ-	Chri-	8g\	Kÿ-	8b-\	Kÿ-	[[Chri-	8dd\	Kÿ-	Chri-	8GG/L	8B-\L	8d\L	8g\L	8dd\L	8gg\L	8GG/L
8GG/	.	8GG/	8GG/	8B-\	8d\	8d\	8dd\	8dd\	8G\	-ri-	-ste	8B-\	-ri-	-ste	8d\	-ri-	-ste	8g\	-ri-	-ste	8b-\	-ri-	-ste	8dd\	-ri-	-ste	8G\	-ri-	-ste	8B-\	-ri-	.	8d\	-ri-	-ste	8d\	-ri-	8b-\	-ri-	-ste]]	8dd\	-ri-	-ste	8GG/	8B-\	8d\	8d\	8dd\	8dd\	8GG/
*	*	*	*	*	*	*	*	*	*	*	*ij	*	*	*ij	*	*	*ij	*	*	*ij	*	*	*ij	*	*	*ij	*	*	*ij	*	*	*	*	*	*ij	*	*	*	*	*	*	*	*ij	*	*	*	*	*	*	*
!	!	!	!	!	!	!	!	!	!	!	!	!	!	!	!	!	!	!	!	!	!	!	!	!	!	!	!	!	!	!	!	!	!	!	!	!	!	!	!	!	!	!	!	!	!LO:TX:t=P:problem=kreska pseudotaktowa	!	!	!	!	!
!LO:TX:t=P:problem=kreska pseudotaktowa	!	!LO:TX:t=P:problem=kreska pseudotaktowa	!LO:TX:t=P:problem=kreska pseudotaktowa	!	!	!LO:TX:t=P:problem=kreska pseudotaktowa	!LO:TX:t=P:problem=kreska pseudotaktowa	!LO:TX:t=P:problem=kreska pseudotaktowa	!LO:TX:t=P:problem=kreska pseudotaktowa	!	!	!LO:TX:t=P:problem=kreska pseudotaktowa	!	!	!LO:TX:t=P:problem=kreska pseudotaktowa	!	!	!LO:TX:t=P:problem=kreska pseudotaktowa	!	!	!LO:TX:t=P:problem=kreska pseudotaktowa	!	!	!LO:TX:t=P:problem=kreska pseudotaktowa	!	!	!LO:TX:t=P:problem=kreska pseudotaktowa	!	!	!LO:TX:t=P:problem=kreska pseudotaktowa	!	!	!LO:TX:t=P:problem=kreska pseudotaktowa	!	!	!LO:TX:t=P:problem=kreska pseudotaktowa	!	!LO:TX:t=P:problem=kreska pseudotaktowa	!	!	!LO:TX:t=P:problem=kreska pseudotaktowa	!	!	!LO:TX:t=P:problem=kreska pseudotaktowa	!	!LO:TX:t=P:problem=kreska pseudotaktowa	!LO:TX:t=P:problem=kreska pseudotaktowa	!LO:TX:t=P:problem=kreska pseudotaktowa	!LO:TX:t=P:problem=kreska pseudotaktowa	!LO:TX:t=P:problem=kreska pseudotaktowa
8GG/J	.	8GG/J	8GG/J	8B-\J	8d\J	8g\J	8dd\J	8gg\J	8G\	-e	Chri-	8B-\	-e	Chri-	8d\	-e	Chri-	8g\	-e	Chri-	8b-\	-e	Chri-	8dd\	-e	Chri-	8G\	-e	Chri-	8B-\	-e	.	8d\	-e	Chri-	8g\	-e	8b-\	-e	.	8dd\	-e	Chri-	8GG/J	8B-\J	8d\J	8g\J	8dd\J	8gg\J	8GG/J
*	*	*	*	*	*	*	*	*	*	*	*	*	*	*	*	*	*	*	*	*	*	*	*	*	*	*	*	*	*	*	*	*	*	*	*	*	*	*	*	*	*	*	*	*	*custos:B	*custos:d	*	*	*	*
!	!	!	!	!	!	!	!	!	!	!	!	!	!	!	!	!	!	!	!	!	!	!	!	!LO:LB:g=original	!	!	!	!	!	!LO:LB:g=original	!	!	!	!	!	!	!	!	!	!	!	!	!	!	!LO:LB:g=original	!LO:LB:g=original	!	!	!	!
=50-	=50-	=50-	=50-	=50-	=50-	=50-	=50-	=50-	=50-	=50-	=50-	=50-	=50-	=50-	=50-	=50-	=50-	=50-	=50-	=50-	=50-	=50-	=50-	=50-	=50-	=50-	=50-	=50-	=50-	=50-	=50-	=50-	=50-	=50-	=50-	=50-	=50-	=50-	=50-	=50-	=50-	=50-	=50-	=50-	=50-	=50-	=50-	=50-	=50-	=50-
4GG/	.	4GG/	4GG/	4B-\	4d\	4g\	4dd\	4gg\	4G\	.	-ste	4B-\	e-	-ste	4d\	e-	-ste	4g\	.	-ste	4.b-\	.	-ste	4dd\	e-	-ste	4G\	e-	-ste]]	4B-\	e-	.	4d\	e-	-ste	4g\	e-	4.b-\	e-	.	4dd\	e-	-ste	4GG/	4B-\	4d\	4g\	4dd\	4gg\	4GG/
*	*	*	*	*	*	*	*	*	*	*	*Xij	*	*	*Xij	*	*	*Xij	*	*	*Xij	*	*	*Xij	*	*	*Xij	*	*	*Xij	*	*	*	*	*	*Xij	*	*	*	*	*	*	*	*Xij	*	*	*	*	*	*	*
4D/	6	4D/	4D/	2B-\	4d\	4fny\	4ff\	4ffny\	4D/	e-	.	2B-\	-lei-	.	4d\	-lei-	.	4fny\	e-	.	.	.	.	4ff\	.	.	4D/	.	.	2B-\	-lei-	.	4d\	-lei-	.	4fny\	.	.	.	.	4ff\	.	.	4D/	2B-\	4d\	4fny\	4ff\	4ffny\	4D/
.	.	.	.	.	.	.	.	.	.	.	.	.	.	.	.	.	.	.	.	.	8b-\	e-	.	.	.	.	.	.	.	.	.	.	.	.	.	.	.	8b-\	.	.	.	.	.	.	.	.	.	.	.	.
*	*	*custos:E	*	*	*	*	*	*	*	*	*	*	*	*	*	*	*	*	*	*	*	*	*	*	*	*	*	*	*	*	*	*	*	*	*	*	*	*	*	*	*	*	*	*	*	*	*	*	*	*
!	!	!LO:LB:g=original	!	!	!LO:TX:t=P:problem=kreska pseudotaktowa	!	!	!	!	!	!	!	!	!	!LO:TX:t=P:problem=kreska pseudotaktowa	!	!	!	!	!	!	!	!	!	!	!	!	!	!	!	!	!	!LO:TX:t=P:problem=kreska pseudotaktowa	!	!	!	!	!	!	!	!LO:LB:g=original	!	!	!	!	!LO:TX:t=P:problem=kreska pseudotaktowa	!	!	!	!
4E-X\	5 6	4E-X\	4E-X\	.	2c\	4g\	4ee-X\	4gg\	4E-X\	-lei-	.	.	.	.	2c\	.	.	4g\	-lei-	.	4.cc\	-lei-	.	(4ee-X\	-lei-	.	4E-X\	-lei-	.	.	.	.	2c\	.	.	4g\	-lei-	4.cc\	-lei-	.	4ee-X\	-lei-	.	4E-X\	.	2c\	4g\	4ee-X\	4gg\	4E-X\
!LO:TX:t=P:problem=kreska pseudotaktowa	!	!	!LO:TX:t=P:problem=kreska pseudotaktowa	!LO:TX:t=P:problem=kreska pseudotaktowa	!	!LO:TX:t=P:problem=kreska pseudotaktowa	!	!LO:TX:t=P:problem=kreska pseudotaktowa	!LO:TX:t=P:problem=kreska pseudotaktowa	!	!	!LO:TX:t=P:problem=kreska pseudotaktowa	!	!	!	!	!	!LO:TX:t=P:problem=kreska pseudotaktowa	!	!	!	!	!	!	!	!	!LO:TX:t=P:problem=kreska pseudotaktowa	!	!	!LO:TX:t=P:problem=kreska pseudotaktowa	!	!	!	!	!	!LO:TX:t=P:problem=kreska pseudotaktowa	!	!	!	!	!LO:TX:t=P:problem=kreska pseudotaktowa	!	!	!LO:TX:t=P:problem=kreska pseudotaktowa	!LO:TX:t=P:problem=kreska pseudotaktowa	!	!LO:TX:t=P:problem=kreska pseudotaktowa	!LO:TX:t=P:problem=kreska pseudotaktowa	!LO:TX:t=P:problem=kreska pseudotaktowa	!LO:TX:t=P:problem=kreska pseudotaktowa
4F\	.	4F\	4F\	4A/	.	4f\	4cc\	4ff\	4F\	.	.	4B-\	-ſon	.	.	.	.	4f\	.	.	.	.	.	4cc\)	.	.	4F\	.	.	4A/	.	.	.	.	.	4f\	.	.	.	.	4cc\	.	.	4F\	4A/	.	4f\	4cc\	4ff\	4F\
!	!	!	!	!	!	!	!	!	!	!	!	!	!	!	!	!	!	!	!	!	!LO:TX:t=P:problem=kreska pseudotaktowa	!	!	!	!	!	!	!	!	!	!	!	!	!	!	!	!	!LO:TX:t=P:problem=kreska pseudotaktowa	!	!	!	!	!	!	!	!	!	!	!	!
.	.	.	.	.	.	.	.	.	.	.	.	.	.	.	.	.	.	.	.	.	8f/	.	.	.	.	.	.	.	.	.	.	.	.	.	.	.	.	8f/	.	.	.	.	.	.	.	.	.	.	.	.
*	*	*	*	*	*	*	*custos:dd	*	*	*	*	*	*	*	*	*	*	*	*	*	*	*	*	*	*	*	*	*	*	*	*	*	*	*	*	*	*	*	*	*	*	*	*	*	*	*	*	*	*	*
!	!	!	!	!	!	!	!LO:LB:g=original	!	!	!	!	!	!	!	!	!	!	!	!	!	!	!	!	!	!	!	!	!	!	!	!	!	!	!	!	!	!	!	!	!	!	!	!	!LO:LB:g=original	!	!	!	!	!	!
=51-	=51-	=51-	=51-	=51-	=51-	=51-	=51-	=51-	=51-	=51-	=51-	=51-	=51-	=51-	=51-	=51-	=51-	=51-	=51-	=51-	=51-	=51-	=51-	=51-	=51-	=51-	=51-	=51-	=51-	=51-	=51-	=51-	=51-	=51-	=51-	=51-	=51-	=51-	=51-	=51-	=51-	=51-	=51-	=51-	=51-	=51-	=51-	=51-	=51-	=51-
!	!	!	!	!	!	!	!	!	!	!	!	!	!	!	!	!	!	!	!	!	!LO:TX:t=P:problem=kreska pseudotaktowa	!	!	!LO:TX:t=P:problem=kreska pseudotaktowa	!	!	!	!	!	!	!	!	!	!	!	!	!	!	!	!	!LO:TX:t=P:problem=kreska pseudotaktowa	!	!	!	!	!	!	!	!	!
2.BB-/	.	2BB-/	2.BB-/	8B-\L	2B-\	2d\	1dd	2dd\	2BB-/	-ſon	.	8B-\	.	.	2B-\	-ſon	.	2d\	-ſon	.	1f	-ſon	.	1dd	-ſon	.	2BB-/	-ſon	.	8B-\	-ſon	.	2B-\	-ſon	.	2d\	-ſon	1g	-ſon	.	1dd	-ſon	.	2.BB-/	8B-\L	2B-\	2d\	1dd	2dd\	2BB-/
.	.	.	.	8F\	.	.	.	.	.	.	.	8F/	Kÿ-	Chri-	.	.	.	.	.	.	.	.	.	.	.	.	.	.	.	8F/	Kÿ-	.	.	.	.	.	.	.	.	.	.	.	.	.	8F\	.	.	.	.	.
.	.	.	.	8F\	.	.	.	.	.	.	.	8F/	-ri-	-ste	.	.	.	.	.	.	.	.	.	.	.	.	.	.	.	8F/	-ri-	.	.	.	.	.	.	.	.	.	.	.	.	.	8F\	.	.	.	.	.
*	*	*	*	*	*	*	*	*	*	*	*	*	*	*ij	*	*	*	*	*	*	*	*	*	*	*	*	*	*	*	*	*	*	*	*	*	*	*	*	*	*	*	*	*	*	*	*	*	*	*	*
.	.	.	.	8F\J	.	.	.	.	.	.	.	8F/	-e	Chri-	.	.	.	.	.	.	.	.	.	.	.	.	.	.	.	8F/	-e	.	.	.	.	.	.	.	.	.	.	.	.	.	8F\J	.	.	.	.	.
!	!	!LO:TX:t=P:problem=kreska pseudotaktowa	!	!LO:TX:t=P:problem=kreska pseudotaktowa, między nutą a kropką	!	!	!	!	!	!	!	!LO:TX:t=P:problem=kreska pseudotaktowa, między nutą a kropką	!	!	!	!	!	!	!	!	!	!	!	!	!	!	!	!	!	!LO:TX:t=P:problem=kreska pseudotaktowa, między nutą a kropką	!	!	!	!	!	!	!	!	!	!	!	!	!	!	!LO:TX:t=P:problem=kreska pseudotaktowa, między nutą a kropką	!	!	!	!	!LO:TX:t=P:problem=kreska pseudotaktowa
.	.	2BB-/	.	2.B-\	8r	8r	.	8r	8r	.	.	2.B-\	e-	-ste	8r	.	.	8r	.	.	.	.	.	.	.	.	8r	.	.	2.B-\	e-	.	8r	.	.	8r	.	.	.	.	.	.	.	.	2.B-\	8r	8r	.	8r	2BB-/
*	*	*	*	*	*	*	*	*	*	*	*	*	*	*Xij	*	*	*	*	*	*	*	*	*	*	*	*	*	*	*	*	*	*	*	*	*	*	*	*	*	*	*	*	*	*	*	*	*	*	*	*
.	.	.	.	.	8B-\L	8d\L	.	8dd\L	8BB-/	Kÿ-	Chri-	.	.	.	8B-\	Kÿ-	Chri-	8d\	Kÿ-	Chri-	.	.	.	.	.	.	8BB-/	Kÿ-	[[Chri-	.	.	.	8B-\	Kÿ-	Chri-	8d\	Kÿ-	.	.	.	.	.	.	.	.	8B-\L	8d\L	.	8dd\L	.
!LO:TX:t=P:problem=kreska pseudotaktowa	!	!	!LO:TX:t=P:problem=kreska pseudotaktowa	!	!	!	!	!	!	!	!	!	!	!	!	!	!	!	!	!	!	!	!	!	!	!	!	!	!	!	!	!	!	!	!	!	!	!	!	!	!	!	!	!LO:TX:t=P:problem=kreska pseudotaktowa	!	!	!	!	!	!
4BB-/	-	.	4BB-/	.	8B-\	8d\	.	8dd\	8BB-/	-ri-	-ste	.	.	.	8B-\	-ri-	-ste	8d\	-ri-	-ste	.	.	.	.	.	.	8BB-/	-ri-	-ste	.	.	.	8B-\	-ri-	-ste	8d\	-ri-	.	.	.	.	.	.	4BB-/	.	8B-\	8d\	.	8dd\	.
*	*	*	*	*	*	*	*	*	*	*	*ij	*	*	*	*	*	*ij	*	*	*ij	*	*	*	*	*	*	*	*	*ij	*	*	*	*	*	*ij	*	*	*	*	*	*	*	*	*	*	*	*	*	*	*
!	!	!	!	!	!LO:TX:t=P:problem=kreska pseudotaktowa	!LO:TX:t=P:problem=kreska pseudotaktowa	!	!LO:TX:t=P:problem=kreska pseudotaktowa	!LO:TX:t=P:problem=kreska pseudotaktowa	!	!	!	!	!	!LO:TX:t=P:problem=kreska pseudotaktowa	!	!	!LO:TX:t=P:problem=kreska pseudotaktowa	!	!	!	!	!	!	!	!	!LO:TX:t=P:problem=kreska pseudotaktowa	!	!	!	!	!	!LO:TX:t=P:problem=kreska pseudotaktowa	!	!	!LO:TX:t=P:problem=kreska pseudotaktowa	!	!	!	!	!	!	!	!	!	!LO:TX:t=P:problem=kreska pseudotaktowa	!LO:TX:t=P:problem=kreska pseudotaktowa	!	!LO:TX:t=P:problem=kreska pseudotaktowa	!
.	.	.	.	.	8B-\J	8d\J	.	8dd\J	8BB-/	-e	Chri-	.	.	.	8B-\	-e	Chri-	8d\	-e	Chri-	.	.	.	.	.	.	8BB-/	-e	Chri-	.	.	.	8B-\	-e	Chri-	8d\	-e	.	.	.	.	.	.	.	.	8B-\J	8d\J	.	8dd\J	.
=52-	=52-	=52-	=52-	=52-	=52-	=52-	=52-	=52-	=52-	=52-	=52-	=52-	=52-	=52-	=52-	=52-	=52-	=52-	=52-	=52-	=52-	=52-	=52-	=52-	=52-	=52-	=52-	=52-	=52-	=52-	=52-	=52-	=52-	=52-	=52-	=52-	=52-	=52-	=52-	=52-	=52-	=52-	=52-	=52-	=52-	=52-	=52-	=52-	=52-	=52-
2E-X\	.	2E-X/	2E-X\	.	2.G/	2.g\	8r	2.gg\	2E-X\	.	-ste	.	.	.	2G/	.	-ste	2.g\	.	-ste	8r	.	.	8r	.	.	2E-X\	e-	-ste]]	.	.	.	2G/	.	-ste	2.g\	e-	8r	.	.	8r	.	.	2E-X\	.	2.G/	2.g\	8r	2.gg\	2E-X\
*	*	*	*	*	*	*	*	*	*	*	*Xij	*	*	*	*	*	*Xij	*	*	*Xij	*	*	*	*	*	*	*	*	*Xij	*	*	*	*	*	*Xij	*	*	*	*	*	*	*	*	*	*	*	*	*	*	*
.	.	.	.	.	.	.	8b-/L	.	.	.	.	.	.	.	.	.	.	.	.	.	8g/	Kÿ-	Chri-	8b-\	Kÿ-	Chri-	.	.	.	.	.	.	.	.	.	.	.	8g/	Kÿ-	[[Chri-	8b-\	Kÿ-	.	.	.	.	.	8b-/L	.	.
.	.	.	.	4B-\	.	.	8b-/	.	.	.	.	4B-\	-le-	.	.	.	.	.	.	.	8g/	-ri-	-ste	8b-\	-ri-	-ste	.	.	.	4B-\	.	.	.	.	.	.	.	8g/	-ri-	-ste	8b-\	-ri-	.	.	4B-\	.	.	8b-/	.	.
*	*	*	*	*	*	*	*	*	*	*	*	*	*	*	*	*	*	*	*	*	*	*	*ij	*	*	*ij	*	*	*	*	*	*	*	*	*	*	*	*	*	*	*	*	*	*	*	*	*	*	*	*
.	.	.	.	.	.	.	8b-/J	.	.	.	.	.	.	.	.	.	.	.	.	.	8g/	-e	Chri-	8b-\	-e	Chri-	.	.	.	.	.	.	.	.	.	.	.	8g/	-e	.	8b-\	-e	.	.	.	.	.	8b-/J	.	.
!	!	!LO:TX:t=P:problem=kreska pseudotaktowa	!	!	!	!	!LO:TX:t=P:problem=kreska pseudotaktowa	!	!	!	!	!	!	!	!LO:TX:t=P:problem=przekreślona synkopowana wartość	!	!	!	!	!	!	!	!	!LO:TX:t=P:problem=kreska pseudotaktowa	!	!	!	!	!	!	!	!	!LO:TX:t=P:problem=przekreślona synkopowana wartość	!	!	!	!	!	!	!	!LO:TX:t=P:problem=kreska pseudotaktowa	!	!	!	!	!	!	!LO:TX:t=P:problem=kreska pseudotaktowa	!	!LO:TX:t=P:problem=kreska pseudotaktowa
2C/	.	2C/	2C/	4c\	.	.	2ee-X\	.	2C/	e-	.	4c\	.	.	2.c\	e-	.	.	.	.	4.cc\	.	-ste	2ee-X\	e-	-ste	2C/	-lei-	.	4c\	.	.	2.c\	e-	.	.	.	4.cc\	Kÿ-	Chri-	2ee-X\	e-	.	2C/	4c\	.	.	2ee-X\	.	2C/
*	*	*	*	*	*	*	*	*	*	*	*	*	*	*	*	*	*	*	*	*	*	*	*Xij	*	*	*Xij	*	*	*	*	*	*	*	*	*	*	*	*	*	*	*	*	*	*	*	*	*	*	*	*
!	!	!	!	!LO:TX:t=P:problem=przekreślona synkopowana wartość	!LO:TX:t=P:problem=przekreślona synkopowana wartość	!LO:TX:t=P:problem=kreska pseudotaktowa	!	!LO:TX:t=P:problem=kreska pseudotaktowa	!	!	!	!LO:TX:t=P:problem=przekreślona synkopowana wartość	!	!	!	!	!	!LO:TX:t=P:problem=kreska pseudotaktowa	!	!	!	!	!	!	!	!	!	!	!	!LO:TX:t=P:problem=przekreślona synkopowana wartość	!	!	!	!	!	!LO:TX:t=P:problem=kreska pseudotaktowa	!	!	!	!	!	!	!	!	!LO:TX:t=P:problem=przekreślona synkopowana wartość	!LO:TX:t=P:problem=przekreślona synkopowana wartość	!LO:TX:t=P:problem=kreska pseudotaktowa	!	!LO:TX:t=P:problem=kreska pseudotaktowa	!
.	.	.	.	2A/	2c\	4a\	.	4aa\	.	.	.	2A/	.	.	.	.	.	4a\	.	.	.	.	.	.	.	.	.	.	.	2A/	-lei-	.	.	.	.	4a\	.	.	.	.	.	.	.	.	2A/	2c\	4a\	.	4aa\	.
!	!	!	!	!	!	!	!	!	!	!	!	!	!	!	!	!	!	!	!	!	!LO:TX:t=P:problem=kreska pseudotaktowa	!	!	!	!	!	!	!	!	!	!	!	!	!	!	!	!	!LO:TX:t=P:problem=kreska pseudotaktowa	!	!	!	!	!	!	!	!	!	!	!	!
.	.	.	.	.	.	.	.	.	.	.	.	.	.	.	.	.	.	.	.	.	8b-\	e-	.	.	.	.	.	.	.	.	.	.	.	.	.	.	.	8b-\	.	.	.	.	.	.	.	.	.	.	.	.
*	*	*	*	*	*	*custos:f	*	*	*	*	*	*	*	*	*	*	*	*	*	*	*	*	*	*	*	*	*	*	*	*	*	*	*	*	*	*	*	*	*	*	*	*	*	*	*	*	*	*	*	*
!	!	!	!	!	!	!LO:LB:g=original	!	!	!	!	!	!	!	!	!	!	!	!	!	!	!	!	!	!	!	!	!	!	!	!	!	!	!	!	!	!	!	!	!	!	!	!	!	!	!	!	!	!	!	!
=53-	=53-	=53-	=53-	=53-	=53-	=53-	=53-	=53-	=53-	=53-	=53-	=53-	=53-	=53-	=53-	=53-	=53-	=53-	=53-	=53-	=53-	=53-	=53-	=53-	=53-	=53-	=53-	=53-	=53-	=53-	=53-	=53-	=53-	=53-	=53-	=53-	=53-	=53-	=53-	=53-	=53-	=53-	=53-	=53-	=53-	=53-	=53-	=53-	=53-	=53-
2D/	# 7	2D/	2D/	.	.	4.f#X\	2dd\	4.ff#X\	2D/	-lei-	.	.	.	.	.	.	.	4.f#X\	e-	.	2a\	-le-	.	2dd\	.	.	2D/	.	.	.	.	.	.	.	.	4.f#X\	.	2a\	-ri-	-ste]]	2dd\	.	.	2D/	.	.	4.f#X\	2dd\	4.ff#X\	2D\
.	.	.	.	4D/	4c\	.	.	.	.	.	.	4A/	i-	.	4c\	.	.	.	.	.	.	.	.	.	.	.	.	.	.	4A/	.	.	4c\	-lei-	.	.	.	.	.	.	.	.	.	.	4D/	4c\	.	.	.	.
.	.	.	.	.	.	16e\LL	.	16ee\LL	.	.	.	.	.	.	.	.	.	16e\LL	.	.	.	.	.	.	.	.	.	.	.	.	.	.	.	.	.	16e\LL	.	.	.	.	.	.	.	.	.	.	16e\LL	.	16ee\LL	.
.	.	.	.	.	.	16f#\JJ	.	16ff#X\JJ	.	.	.	.	.	.	.	.	.	16f#\JJ	.	.	.	.	.	.	.	.	.	.	.	.	.	.	.	.	.	16f#\JJ	.	.	.	.	.	.	.	.	.	.	16f#\JJ	.	16ff#\JJ	.
!LO:TX:t=P:problem=kreska pseudotaktowa	!	!LO:TX:t=P:problem=kreska pseudotaktowa	!LO:TX:t=P:problem=kreska pseudotaktowa	!LO:TX:t=P:problem=kreska pseudotaktowa	!LO:TX:t=P:problem=kreska pseudotaktowa	!LO:TX:t=P:problem=przekreślona synkopowana wartość	!	!LO:TX:t=P:problem=przekreślona synkopowana wartość	!LO:TX:t=P:problem=kreska pseudotaktowa	!	!	!LO:TX:t=P:problem=kreska pseudotaktowa	!	!	!LO:TX:t=P:problem=kreska pseudotaktowa	!	!	!LO:TX:t=P:problem=przekreślona synkopowana wartość	!	!	!	!	!	!	!	!	!LO:TX:t=P:problem=kreska pseudotaktowa	!	!	!LO:TX:t=P:problem=kreska pseudotaktowa	!	!	!LO:TX:t=P:problem=kreska pseudotaktowa	!	!	!LO:TX:t=P:problem=przekreślona synkopowana wartość	!	!LO:TX:t=P:problem=kreska pseudotaktowa	!	!	!	!	!	!LO:TX:t=P:problem=kreska pseudotaktowa	!LO:TX:t=P:problem=kreska pseudotaktowa	!LO:TX:t=P:problem=kreska pseudotaktowa	!LO:TX:t=P:problem=przekreślona synkopowana wartość	!	!LO:TX:t=P:problem=przekreślona synkopowana wartość	!LO:TX:t=P:problem=kreska pseudotaktowa
2GG/	.	2GG/	2GG/	2d\	2B-\	1g\	2dd\	1gg\	2GG/	.	.	2G/	-ſon	.	2B-\	-lei-	.	1g\	.	.	2b-\	.	.	2dd\	-lei-	.	2GG/	.	.	2G/	-ſon	.	2B-\	.	.	1g\	.	2b-\	-e	.	2dd\	-lei-	.	2GG/	2d\	2B-\	1g\	2dd\	1gg\	2GG/
=54-	=54-	=54-	=54-	=54-	=54-	=54-	=54-	=54-	=54-	=54-	=54-	=54-	=54-	=54-	=54-	=54-	=54-	=54-	=54-	=54-	=54-	=54-	=54-	=54-	=54-	=54-	=54-	=54-	=54-	=54-	=54-	=54-	=54-	=54-	=54-	=54-	=54-	=54-	=54-	=54-	=54-	=54-	=54-	=54-	=54-	=54-	=54-	=54-	=54-	=54-
*	*	*	*	*	*	*	*	*	*	*	*	*	*	*	*	*	*	*	*	*	*	*	*	*	*	*	*	*	*	*	*ij	*	*	*	*	*	*	*	*	*	*	*	*	*	*	*	*	*	*	*
!	!	!LO:TX:t=P:problem=kreska pseudotaktowa	!	!	!	!	!	!	!	!	!	!	!	!	!	!	!	!	!	!	!	!	!	!	!	!	!	!	!	!	!	!	!	!	!	!	!	!	!	!	!	!	!	!	!	!	!	!LO:TX:t=P:problem=kreska pseudotaktowa	!	!LO:TX:t=P:problem=kreska pseudotaktowa
1D	4	1D	1D	1d	1A	.	1dd	.	1D	.	.	4A/	e-	.	1A	.	.	.	.	.	2dd\	.	.	1dd	.	.	1D	.	.	4A/	e-	.	1A	.	.	.	.	2dd\	e-	.	1dd	.	.	1D	1d	1A	.	1dd	.	1D
.	# 3	.	.	.	.	.	.	.	.	.	.	4D/	.	.	.	.	.	.	.	.	.	.	.	.	.	.	.	.	.	4D/	.	.	.	.	.	.	.	.	.	.	.	.	.	.	.	.	.	.	.	.
!	!	!	!	!	!	!	!	!LO:TX:a:t=P:problem=# below	!	!	!	!	!	!	!	!	!	!LO:TX:a:t=P:problem=# above	!	!	!	!	!	!	!	!	!	!	!	!	!	!	!	!	!	!	!	!	!	!	!	!	!	!	!	!	!	!	!	!
.	.	.	.	.	.	2f#X\	.	2ff#X\	.	.	.	2d\	-lei-	.	.	.	.	2f#X\	-lei-	.	2a\	i-	.	.	.	.	.	.	.	2d\	-lei-	.	.	.	.	2f#X\	-lei-	2a\	-lei-	.	.	.	.	.	.	.	2f#X\	.	2ff#X\	.
=55-	=55-	=55-	=55-	=55-	=55-	=55-	=55-	=55-	=55-	=55-	=55-	=55-	=55-	=55-	=55-	=55-	=55-	=55-	=55-	=55-	=55-	=55-	=55-	=55-	=55-	=55-	=55-	=55-	=55-	=55-	=55-	=55-	=55-	=55-	=55-	=55-	=55-	=55-	=55-	=55-	=55-	=55-	=55-	=55-	=55-	=55-	=55-	=55-	=55-	=55-
!	!	!	!	!	!	!	!	!	!	!	!	!	!	!	!	!	!	!	!	!	!LO:N:acc=#	!	!	!	!	!	!	!	!	!	!	!	!	!	!	!	!	!LO:N:acc=#	!	!	!	!	!	!	!	!	!	!	!	!
0GGl;	.	0GGl;;	0GGl	0dl	0Gl	0gl	0ddl;;	0ggl;;	0GGl;	-ſon	.	0dl;	-ſon.	.	0Gl;	-ſon.	.	0gl	-ſon.	.	0bnl;	-ſon.	.	0ddl;	-ſon.	.	0GGl;	-ſon.	.	0dl;	-ſon	.	0Gl;	-ſon.	.	0gl;<	-ſon.	0bnl	-ſon.	.	0ddl;	-ſon.	.	0GGl;	0dl;;	0Gl;	0gl	0ddl	0gg;	0GGl;
*	*	*	*	*	*	*	*	*	*	*	*	*	*	*	*	*	*	*	*	*	*	*	*	*	*	*	*	*	*	*	*Xij	*	*	*	*	*	*	*	*	*	*	*	*	*	*	*	*	*	*	*
!LO:TX:b:i:t=Kyrie ut supra	!	!	!	!	!	!	!LO:TX:b:i:t=repetatur Kyrie ab imitis\nsi lubet.	!	!	!	!	!	!	!	!	!	!	!	!	!	!LO:N:acc=#	!	!	!	!	!	!	!	!	!	!	!	!	!	!	!	!	!	!	!	!	!	!	!	!	!	!	!LO:TX:b:i:t=repetatur Kyrie	!LO:TX:b:i:t=repetat(ur) Kyrie si placet	!
==	==	==	==	==	==	==	==	==	==	==	==	==	==	==	==	==	==	==	==	==	==	==	==	==	==	==	==	==	==	==	==	==	==	==	==	==	==	==	==	==	==	==	==	==	==	==	==	==	==	==
*-	*-	*-	*-	*-	*-	*-	*-	*-	*-	*-	*-	*-	*-	*-	*-	*-	*-	*-	*-	*-	*-	*-	*-	*-	*-	*-	*-	*-	*-	*-	*-	*-	*-	*-	*-	*-	*-	*-	*-	*-	*-	*-	*-	*-	*-	*-	*-	*-	*-	*-
!!!system-decoration: <ww>[(bras)][(g1)][(g2)][(str)]<s27>
!!!RDF**kern: < = below
!!!RDF**kern: l = terminal long
!!!ENC: Berenika Jozajtis
!!!END: 2022-06-13
!!!ENC: Andrzej Kubiczek
!!!END: 2022-08-15
